%
O9999
(T1 D=5. CR=0. - ZMIN=-7. - FLAT END MILL)
N10 G90 G94 G17 G49 G40 G80
N15 G21
N20 G28 G91 Z0.
N25 G90

(2D ADAPTIVE2)
N30 T1 M06
N35 S1500 M03
N40 G17 G90 G94
N45 G54
N55 G00 X13.107 Y-9.322
N60 G43 Z15. H01
N65 G00 Z5.
N70 Z-6.
N75 G01 Z-6.5 F258.
N80 X13.101 Y-9.326 Z-6.587
N85 X13.081 Y-9.336 Z-6.671
N90 X13.048 Y-9.353 Z-6.75
N95 X13.003 Y-9.376 Z-6.821
N100 X12.949 Y-9.404 Z-6.883
N105 X12.885 Y-9.436 Z-6.933
N110 X12.815 Y-9.473 Z-6.97
N115 X12.74 Y-9.511 Z-6.992
N120 X12.663 Y-9.551 Z-7.
N125 G03 X10.368 Y-11.066 I5.843 J-11.349
N130 G01 X10.12 Y-11.285
N135 X10.001 Y-11.373
N140 X9.817 Y-11.502
N145 X9.634 Y-11.602
N150 X9.538 Y-11.652
N155 X9.45 Y-11.69
N160 X9.267 Y-11.765
N165 X9.236 Y-11.775
N170 X9.061 Y-11.843
N175 X8.894 Y-11.914
N180 X8.685 Y-12.011
N185 X7.963 Y-12.375
N190 X7.239 Y-12.735
N195 X6.511 Y-13.086
N200 X5.778 Y-13.426
N205 X5.021 Y-13.709
N210 X4.252 Y-13.957
N215 X3.477 Y-14.185
N220 X2.684 Y-14.346
N225 X1.885 Y-14.464
N230 X1.082 Y-14.559
N235 X0.275 Y-14.591
N240 X-0.533 Y-14.575
N245 X-1.341 Y-14.533
N250 X-2.143 Y-14.435
N255 X-2.937 Y-14.286
N260 X-3.725 Y-14.107
N265 X-4.502 Y-13.882
N270 X-5.26 Y-13.603
N275 X-6.007 Y-13.294
N280 X-6.737 Y-12.947
N285 X-7.439 Y-12.547
N290 X-8.123 Y-12.115
N295 X-8.531 Y-11.834
N300 X-8.615 Y-11.779
N305 X-8.701 Y-11.728
N310 X-8.79 Y-11.681
N315 X-9.083 Y-11.534
N320 X-9.2 Y-11.469
N325 X-9.451 Y-11.285
N330 X-9.654 Y-11.102
N335 X-9.817 Y-10.934
N340 X-9.83 Y-10.918
N345 X-10.376 Y-10.321
N350 X-10.916 Y-9.72
N355 X-11.421 Y-9.09
N360 X-11.906 Y-8.443
N365 X-12.357 Y-7.772
N370 X-12.759 Y-7.071
N375 X-13.132 Y-6.354
N380 X-13.471 Y-5.62
N385 X-13.753 Y-4.863
N390 X-14. Y-4.093
N395 X-14.217 Y-3.315
N400 X-14.37 Y-2.521
N405 X-14.483 Y-1.721
N410 X-14.573 Y-0.918
N415 X-14.592 Y-0.11
N420 X-14.569 Y0.698
N425 X-14.522 Y1.505
N430 X-14.41 Y2.306
N435 X-14.252 Y3.098
N440 X-14.069 Y3.885
N445 X-13.83 Y4.658
N450 X-13.543 Y5.413
N455 X-13.229 Y6.158
N460 X-12.869 Y6.882
N465 X-12.461 Y7.579
N470 X-12.025 Y8.26
N475 X-11.554 Y8.917
N480 X-11.036 Y9.537
N485 X-10.491 Y10.134
N490 X-9.921 Y10.707
N495 X-9.307 Y11.233
N500 X-8.67 Y11.729
N505 X-8.015 Y12.203
N510 X-7.322 Y12.62
N515 X-6.61 Y13.002
N520 X-5.887 Y13.363
N525 X-5.135 Y13.66
N530 X-4.369 Y13.916
N535 X-3.595 Y14.149
N540 X-2.805 Y14.321
N545 X-2.007 Y14.446
N550 X-1.204 Y14.544
N555 X-0.397 Y14.588
N560 X0.411 Y14.579
N565 X1.218 Y14.54
N570 X2.022 Y14.453
N575 X2.817 Y14.31
N580 X3.606 Y14.135
N585 X4.386 Y13.921
N590 X5.146 Y13.648
N595 X5.894 Y13.342
N600 X6.629 Y13.006
N605 X7.335 Y12.611
N610 X8.02 Y12.182
N615 X8.691 Y11.732
N620 X9.321 Y11.226
N625 X9.925 Y10.688
N630 X10.512 Y10.133
N635 X11.051 Y9.531
N640 X11.556 Y8.9
N645 X12.04 Y8.253
N650 X12.475 Y7.572
N655 X12.868 Y6.865
N660 X13.236 Y6.145
N665 X13.556 Y5.403
N670 X13.826 Y4.642
N675 X14.067 Y3.87
N680 X14.264 Y3.086
N685 X14.405 Y2.29
N690 X14.511 Y1.489
N695 X14.58 Y0.684
N700 X14.587 Y-0.124
N705 X14.556 Y-0.932
N710 X14.495 Y-1.738
N715 X14.367 Y-2.536
N720 X14.201 Y-3.327
N725 X14.011 Y-4.113
N730 X13.753 Y-4.879
N735 X13.455 Y-5.63
N740 X13.136 Y-6.372
N745 X12.757 Y-7.086
N750 X12.338 Y-7.778
N755 X11.897 Y-8.455
N760 X11.501 Y-8.978
N765 X11.352 Y-9.202
N770 X11.233 Y-9.444
N775 X11.144 Y-9.699
N780 X11.111 Y-9.817
N785 X11.102 Y-9.85
N790 X11.046 Y-10.001
N795 X10.885 Y-10.368
N800 X10.774 Y-10.551
N805 X10.692 Y-10.675
N810 X10.651 Y-10.735
N815 X10.5 Y-10.918
N820 X10.368 Y-11.066
N825 X10.322 Y-11.13
N830 X10.26 Y-11.225
N835 X10.22 Y-11.274
N840 X10.173 Y-11.317
N845 X10.122 Y-11.355
N850 X9.945 Y-11.466
N855 X9.618 Y-11.673
N860 X9.562 Y-11.703
N865 X9.503 Y-11.727
N870 X9.441 Y-11.742
N875 X9.329 Y-11.758
N880 X9.282 Y-11.764
N885 X9.236 Y-11.775
N890 X9.052 Y-11.836
N895 X8.9 Y-11.871
N900 X8.716 Y-11.907
N905 X8.533 Y-11.933
N910 X8.502 Y-11.934
N915 X8.353 Y-11.95
N920 X8.206 Y-11.981
N925 X8.03 Y-12.025
N930 X7.799 Y-12.09
N935 X7.493 Y-12.188
N940 X7.011 Y-12.361
N945 X6.26 Y-12.659
N950 X5.506 Y-12.949
N955 X4.743 Y-13.217
N960 X3.971 Y-13.457
N965 X3.187 Y-13.653
N970 X2.394 Y-13.808
N975 X1.594 Y-13.922
N980 X0.788 Y-13.987
N985 X-0.02 Y-14.007
N990 X-0.828 Y-13.984
N995 X-1.633 Y-13.911
N1000 X-2.432 Y-13.792
N1005 X-3.224 Y-13.631
N1010 X-4.005 Y-13.421
N1015 X-4.772 Y-13.167
N1020 X-5.525 Y-12.873
N1025 X-6.257 Y-12.532
N1030 X-6.896 Y-12.188
N1035 X-7.179 Y-12.062
N1040 X-7.478 Y-11.977
N1045 X-7.785 Y-11.936
N1050 X-7.864 Y-11.941
N1055 G02 X-8.198 Y-11.956 I-0.254 J1.901
N1060 G01 X-8.268 Y-11.948
N1065 X-8.336 Y-11.931
N1070 X-8.4 Y-11.904
N1075 X-8.545 Y-11.832
N1080 X-9.289 Y-11.46
N1085 X-9.439 Y-11.385
N1090 X-9.499 Y-11.349
N1095 X-9.554 Y-11.306
N1100 X-9.602 Y-11.254
N1105 G02 X-9.791 Y-10.978 I1.484 J1.215
N1110 G01 X-9.83 Y-10.918
N1115 X-9.982 Y-10.735
N1120 X-10.001 Y-10.709
N1125 X-10.105 Y-10.551
N1130 X-10.184 Y-10.424
N1135 X-10.215 Y-10.368
N1140 X-10.302 Y-10.184
N1145 X-10.338 Y-10.098
N1150 X-10.444 Y-9.877
N1155 X-10.557 Y-9.66
N1160 X-10.725 Y-9.364
N1165 X-11.145 Y-8.674
N1170 X-11.578 Y-7.991
N1175 X-11.992 Y-7.297
N1180 X-12.379 Y-6.588
N1185 X-12.732 Y-5.86
N1190 X-13.042 Y-5.114
N1195 X-13.315 Y-4.353
N1200 X-13.544 Y-3.578
N1205 X-13.725 Y-2.79
N1210 X-13.867 Y-1.995
N1215 X-13.96 Y-1.192
N1220 X-14.002 Y-0.385
N1225 X-14.005 Y0.424
N1230 X-13.958 Y1.23
N1235 X-13.86 Y2.033
N1240 X-13.723 Y2.829
N1245 X-13.537 Y3.616
N1250 X-13.303 Y4.389
N1255 X-13.028 Y5.15
N1260 X-12.71 Y5.892
N1265 X-12.346 Y6.614
N1270 X-11.944 Y7.316
N1275 X-11.503 Y7.993
N1280 X-11.021 Y8.641
N1285 X-10.505 Y9.263
N1290 X-9.954 Y9.855
N1295 X-9.367 Y10.411
N1300 X-8.752 Y10.935
N1305 X-8.108 Y11.423
N1310 X-7.434 Y11.87
N1315 X-7.343 Y11.924
N1320 X-7.239 Y11.989
N1325 X-7.138 Y12.061
N1330 X-7.042 Y12.138
N1335 X-6.967 Y12.203
N1340 X-6.881 Y12.272
N1345 X-6.736 Y12.386
N1350 X-6.331 Y12.627
N1355 X-6.147 Y12.734
N1360 X-5.413 Y13.122
N1365 X-5.046 Y13.316
N1370 X-4.863 Y13.395
N1375 X-4.679 Y13.466
N1380 X-4.496 Y13.522
N1385 X-4.312 Y13.571
N1390 X-2.661 Y13.996
N1395 X-2.294 Y14.062
N1400 X-2.11 Y14.094
N1405 X-1.927 Y14.109
N1410 X-0.459 Y14.2
N1415 X-0.275 Y14.211
N1420 X0.275 Y14.222
N1425 X0.318 Y14.221
N1430 X2.11 Y14.127
N1435 X2.661 Y14.088
N1440 X2.844 Y14.052
N1445 X3.211 Y13.973
N1450 X3.395 Y13.928
N1455 X5.046 Y13.506
N1460 X5.105 Y13.487
N1465 X5.597 Y13.323
N1470 X5.641 Y13.304
N1475 X6.147 Y13.033
N1480 X6.331 Y12.931
N1485 X6.698 Y12.722
N1490 X6.881 Y12.616
N1495 X7.27 Y12.386
N1500 X7.432 Y12.281
N1505 X7.535 Y12.203
N1510 X7.615 Y12.137
N1515 X7.946 Y11.836
N1520 X8.535 Y11.285
N1525 X8.729 Y11.102
N1530 X8.9 Y10.932
N1535 X9.474 Y10.363
N1540 X10.045 Y9.791
N1545 X10.584 Y9.19
N1550 X11.095 Y8.563
N1555 X11.568 Y7.908
N1560 X12.001 Y7.225
N1565 X12.398 Y6.521
N1570 X12.753 Y5.795
N1575 X13.063 Y5.049
N1580 X13.334 Y4.287
N1585 X13.559 Y3.511
N1590 X13.737 Y2.723
N1595 X13.872 Y1.926
N1600 X13.961 Y1.122
N1605 X14.001 Y0.315
N1610 X13.998 Y-0.493
N1615 X13.947 Y-1.3
N1620 X13.847 Y-2.102
N1625 X13.707 Y-2.898
N1630 X13.518 Y-3.684
N1635 X13.28 Y-4.456
N1640 X13.005 Y-5.216
N1645 X12.683 Y-5.957
N1650 X12.316 Y-6.677
N1655 X11.912 Y-7.378
N1660 X11.585 Y-7.878
N1665 X11.413 Y-8.199
N1670 X11.297 Y-8.544
N1675 X11.241 Y-8.904
N1680 X11.216 Y-9.267
N1685 X11.2 Y-9.45
N1690 X11.162 Y-9.634
N1695 X11.144 Y-9.699
N1700 X11.132 Y-9.776 Z-6.98
N1705 G02 X10.972 Y-10.461 Z-6.8 I-2.35 J0.186
N1710 G01 X10.927 Y-10.568
N1715 X10.891 Y-10.633
N1720 X10.846 Y-10.692
N1725 X10.793 Y-10.744
N1730 X9.571 Y-11.77
N1735 X9.511 Y-11.813
N1740 X9.445 Y-11.847
N1745 X9.375 Y-11.871
N1750 X9.283 Y-11.893
N1755 G02 X8.559 Y-11.936 Z-6.985 I-0.501 J2.303
N1760 G01 X8.502 Y-11.934 Z-7.
N1765 X8.349 Y-11.942
N1770 X8.166 Y-11.947
N1775 X7.743
N1780 X7.575 Y-11.956
N1785 X7.426 Y-11.968
N1790 X7.277 Y-11.988
N1795 X7.093 Y-12.018
N1800 X6.854 Y-12.066
N1805 X6.513 Y-12.146
N1810 X5.749 Y-12.353
N1815 X4.977 Y-12.59
N1820 X4.201 Y-12.819
N1825 X3.418 Y-13.02
N1830 X2.627 Y-13.185
N1835 X1.829 Y-13.31
N1840 X1.025 Y-13.39
N1845 X0.217 Y-13.425
N1850 X-0.591 Y-13.412
N1855 X-1.397 Y-13.351
N1860 X-2.198 Y-13.243
N1865 X-2.991 Y-13.086
N1870 X-3.773 Y-12.881
N1875 X-4.541 Y-12.631
N1880 X-5.293 Y-12.334
N1885 X-5.72 Y-12.14
N1890 X-6.006 Y-12.034
N1895 X-6.304 Y-11.969
N1900 X-6.609 Y-11.947
N1905 X-7.615
N1910 X-7.785 Y-11.936
N1915 X-7.864 Y-11.941 Z-6.98
N1920 G02 X-8.567 Y-11.921 Z-6.8 I-0.292 J2.18
N1925 G01 X-8.627 Y-11.909
N1930 X-8.692 Y-11.89
N1935 X-8.754 Y-11.862
N1940 X-8.812 Y-11.827
N1945 X-9.904 Y-11.042
N1950 X-9.957 Y-10.999
N1955 X-10.002 Y-10.949
N1960 X-10.041 Y-10.893
N1965 X-10.075 Y-10.834
N1970 G02 X-10.315 Y-10.18 Z-6.978 I1.92 J1.074
N1975 G01 X-10.338 Y-10.098 Z-7.
N1980 X-10.379 Y-10.001
N1985 X-10.442 Y-9.817
N1990 X-10.493 Y-9.634
N1995 X-10.53 Y-9.45
N2000 X-10.533 Y-9.42
N2005 X-10.554 Y-9.271
N2010 X-10.596 Y-9.127
N2015 X-10.643 Y-8.985
N2020 X-10.712 Y-8.802
N2025 X-10.825 Y-8.528
N2030 X-11.03 Y-8.078
N2035 X-11.388 Y-7.353
N2040 X-11.753 Y-6.632
N2045 X-12.099 Y-5.901
N2050 X-12.415 Y-5.157
N2055 X-12.694 Y-4.399
N2060 X-12.93 Y-3.626
N2065 X-13.123 Y-2.841
N2070 X-13.271 Y-2.046
N2075 X-13.368 Y-1.244
N2080 X-13.419 Y-0.438
N2085 X-13.421 Y0.371
N2090 X-13.374 Y1.177
N2095 X-13.279 Y1.98
N2100 X-13.135 Y2.775
N2105 X-12.943 Y3.561
N2110 X-12.704 Y4.333
N2115 X-12.42 Y5.089
N2120 X-12.09 Y5.827
N2125 X-11.717 Y6.544
N2130 X-11.301 Y7.237
N2135 X-10.844 Y7.904
N2140 X-10.349 Y8.543
N2145 X-9.816 Y9.15
N2150 X-9.247 Y9.724
N2155 X-9.118 Y9.851
N2160 X-9. Y9.989
N2165 X-8.896 Y10.136
N2170 X-8.716 Y10.414
N2175 X-8.503 Y10.735
N2180 X-8.349 Y10.934
N2185 X-8.189 Y11.102
N2190 X-7.982 Y11.303
N2195 X-7.799 Y11.47
N2200 X-7.065 Y12.119
N2205 X-7.042 Y12.138
N2210 X-6.967 Y12.203 Z-6.975
N2215 X-6.881 Y12.272 Z-6.947
N2220 X-6.736 Y12.386 Z-6.9
N2225 X-6.421 Y12.574 Z-6.806
N2230 X-6.4 Y12.586 Z-6.8
N2235 X-6.331 Y12.627
N2240 X-6.147 Y12.734
N2245 X-5.597 Y13.026
N2250 X-5.046 Y13.316
N2255 X-4.863 Y13.395
N2260 X-4.679 Y13.466
N2265 X-4.496 Y13.522
N2270 X-4.312 Y13.571
N2275 X-2.661 Y13.996
N2280 X-2.477 Y14.03
N2285 X-2.11 Y14.094
N2290 X-1.927 Y14.109
N2295 X-0.459 Y14.2
N2300 X-0.275 Y14.211
N2305 X0.275 Y14.222
N2310 X0.318 Y14.221
N2315 X2.11 Y14.127
N2320 X2.661 Y14.088
N2325 X2.844 Y14.052
N2330 X3.211 Y13.973
N2335 X3.395 Y13.928
N2340 X5.046 Y13.506
N2345 X5.105 Y13.487
N2350 X5.597 Y13.323
N2355 X5.641 Y13.304
N2360 X6.147 Y13.033
N2365 X6.32 Y12.937
N2370 X6.698 Y12.722
N2375 X6.881 Y12.616
N2380 X7.27 Y12.386
N2385 X7.432 Y12.281
N2390 X7.535 Y12.203
N2395 X7.615 Y12.137
N2400 X7.799 Y11.97
N2405 X7.946 Y11.836
N2410 X8.332 Y11.475
N2415 X8.35 Y11.458 Z-6.806
N2420 X8.533 Y11.287 Z-6.87
N2425 X8.535 Y11.285 Z-6.871
N2430 X8.729 Y11.102 Z-6.939
N2435 X8.9 Y10.932 Z-7.
N2440 X9.083 Y10.723
N2445 X9.207 Y10.551
N2450 X9.267 Y10.466
N2455 X9.333 Y10.368
N2460 X9.698 Y9.817
N2465 X10.048 Y9.267
N2470 X10.062 Y9.236
N2475 X10.131 Y9.103
N2480 X10.575 Y8.428
N2485 X11.02 Y7.753
N2490 X11.445 Y7.066
N2495 X11.839 Y6.36
N2500 X12.192 Y5.633
N2505 X12.505 Y4.888
N2510 X12.774 Y4.126
N2515 X12.997 Y3.349
N2520 X13.174 Y2.56
N2525 X13.303 Y1.762
N2530 X13.385 Y0.958
N2535 X13.419 Y0.151
N2540 X13.403 Y-0.657
N2545 X13.34 Y-1.463
N2550 X13.229 Y-2.264
N2555 X13.069 Y-3.056
N2560 X12.862 Y-3.837
N2565 X12.609 Y-4.605
N2570 X12.309 Y-5.355
N2575 X11.965 Y-6.087
N2580 X11.503 Y-6.938
N2585 X11.36 Y-7.262
N2590 X11.273 Y-7.606
N2595 X11.244 Y-7.959
N2600 Y-8.716
N2605 X11.241 Y-8.904
N2610 G03 X11.724 Y-9.421 I0.5 J-0.017
N2615 G01 X11.811 Y-9.424 Z-6.992
N2620 X11.895 Y-9.426 Z-6.97
N2625 X11.974 Y-9.429 Z-6.933
N2630 X12.045 Y-9.432 Z-6.883
N2635 X12.107 Y-9.434 Z-6.821
N2640 X12.157 Y-9.435 Z-6.75
N2645 X12.193 Y-9.437 Z-6.671
N2650 X12.216 Z-6.587
N2655 X12.224 Y-9.438 Z-6.5
N2660 G00 Z5.
N2665 X8.927 Y-12.424
N2670 Z-6.
N2675 G01 Z-6.5 F258.
N2680 X8.92 Y-12.42 Z-6.587
N2685 X8.901 Y-12.409 Z-6.671
N2690 X8.869 Y-12.39 Z-6.75
N2695 X8.826 Y-12.364 Z-6.821
N2700 X8.773 Y-12.333 Z-6.883
N2705 X8.712 Y-12.296 Z-6.933
N2710 X8.644 Y-12.256 Z-6.97
N2715 X8.571 Y-12.213 Z-6.992
N2720 X8.497 Y-12.169 Z-7.
N2725 G03 X7.743 Y-11.947 I-0.809 J-1.36
N2730 G01 X6.413
N2735 X6.188 Y-11.959
N2740 X6.012 Y-11.973
N2745 X5.771 Y-12.002
N2750 X5.454 Y-12.05
N2755 X4.756 Y-12.179
N2760 X3.967 Y-12.354
N2765 X3.176 Y-12.52
N2770 X2.38 Y-12.66
N2775 X1.579 Y-12.764
N2780 X0.773 Y-12.826
N2785 X-0.035 Y-12.842
N2790 X-0.843 Y-12.81
N2795 X-1.647 Y-12.73
N2800 X-2.445 Y-12.599
N2805 X-3.233 Y-12.42
N2810 X-4.008 Y-12.191
N2815 X-4.337 Y-12.073
N2820 X-4.573 Y-12.004
N2825 X-4.816 Y-11.961
N2830 X-5.062 Y-11.947
N2835 X-6.609
N2840 X-6.687 Y-11.956 Z-6.98
N2845 X-6.762 Y-11.977 Z-6.96
N2850 G02 X-7.371 Y-12.124 Z-6.8 I-0.961 J2.641
N2855 X-8.212 Y-12.104 I-0.352 J2.788
N2860 G01 X-8.279 Y-12.087
N2865 X-8.344 Y-12.061
N2870 X-8.405 Y-12.026
N2875 X-9.965 Y-10.972
N2880 X-10.02 Y-10.929
N2885 X-10.068 Y-10.879
N2890 X-10.109 Y-10.822
N2895 G02 X-10.401 Y-10.191 I2.386 J1.486
N2900 X-10.532 Y-9.43 Z-6.997 I2.677 J0.855
N2905 G01 X-10.533 Y-9.42 Z-7.
N2910 X-10.547 Y-9.267
N2915 X-10.572 Y-8.9
N2920 X-10.573 Y-8.844
N2925 X-10.582 Y-8.695
N2930 X-10.6 Y-8.546
N2935 X-10.626 Y-8.398
N2940 X-10.658 Y-8.251
N2945 X-10.702 Y-8.081
N2950 X-10.763 Y-7.872
N2955 X-10.856 Y-7.59
N2960 X-11.034 Y-7.105
N2965 X-11.338 Y-6.356
N2970 X-11.648 Y-5.61
N2975 X-11.939 Y-4.856
N2980 X-12.198 Y-4.09
N2985 X-12.418 Y-3.313
N2990 X-12.595 Y-2.524
N2995 X-12.724 Y-1.726
N3000 X-12.806 Y-0.922
N3005 X-12.837 Y-0.114
N3010 X-12.818 Y0.694
N3015 X-12.748 Y1.499
N3020 X-12.628 Y2.298
N3025 X-12.458 Y3.088
N3030 X-12.238 Y3.866
N3035 X-11.97 Y4.629
N3040 X-11.655 Y5.373
N3045 X-11.294 Y6.096
N3050 X-10.887 Y6.795
N3055 X-10.438 Y7.466
N3060 X-10.048 Y7.976
N3065 X-9.915 Y8.171
N3070 X-9.804 Y8.379
N3075 X-9.717 Y8.598
N3080 X-9.634 Y8.844
N3085 X-9.45 Y9.256
N3090 X-9.083 Y9.846
N3095 X-8.896 Y10.136
N3100 G03 X-9.069 Y10.822 I-0.429 J0.256
N3105 G01 X-9.143 Y10.866 Z-6.992
N3110 X-9.215 Y10.91 Z-6.97
N3115 X-9.283 Y10.95 Z-6.933
N3120 X-9.344 Y10.987 Z-6.883
N3125 X-9.397 Y11.018 Z-6.821
N3130 X-9.44 Y11.044 Z-6.75
N3135 X-9.472 Y11.063 Z-6.671
N3140 X-9.491 Y11.074 Z-6.587
N3145 X-9.498 Y11.078 Z-6.5
N3150 G00 Z5.
N3155 X10. Y10.511
N3160 Z-6.
N3165 G01 Z-6.5 F258.
N3170 X9.999 Y10.503 Z-6.587
N3175 X9.997 Y10.481 Z-6.671
N3180 X9.993 Y10.444 Z-6.75
N3185 X9.988 Y10.394 Z-6.821
N3190 X9.981 Y10.333 Z-6.883
N3195 X9.974 Y10.262 Z-6.933
N3200 X9.966 Y10.183 Z-6.97
N3205 X9.957 Y10.1 Z-6.992
N3210 X9.948 Y10.013 Z-7.
N3215 G03 X10.062 Y9.236 I1.574 J-0.166
N3220 G01 X10.132 Y9.083
N3225 X10.214 Y8.9
N3230 X10.288 Y8.716
N3235 X10.494 Y8.166
N3240 X10.551 Y8.01
N3245 X10.861 Y7.264
N3250 X11.192 Y6.526
N3255 X11.526 Y5.79
N3260 X11.838 Y5.045
N3265 X12.116 Y4.286
N3270 X12.353 Y3.513
N3275 X12.544 Y2.728
N3280 X12.688 Y1.933
N3285 X12.784 Y1.13
N3290 X12.83 Y0.323
N3295 X12.825 Y-0.485
N3300 X12.769 Y-1.291
N3305 X12.663 Y-2.093
N3310 X12.506 Y-2.886
N3315 X12.3 Y-3.667
N3320 X12.045 Y-4.434
N3325 X11.742 Y-5.183
N3330 X11.446 Y-5.815
N3335 X11.335 Y-6.107
N3340 X11.267 Y-6.413
N3345 X11.244 Y-6.725
N3350 Y-7.959
N3355 G03 X11.761 Y-8.441 I0.5 J0.017
N3360 G01 X11.848 Y-8.438 Z-6.992
N3365 X11.932 Y-8.435 Z-6.97
N3370 X12.011 Y-8.432 Z-6.933
N3375 X12.082 Y-8.43 Z-6.883
N3380 X12.144 Y-8.428 Z-6.821
N3385 X12.194 Y-8.426 Z-6.75
N3390 X12.231 Y-8.425 Z-6.671
N3395 X12.253 Y-8.424 Z-6.587
N3400 X12.261 Z-6.5
N3405 G00 Z5.
N3410 X7.597 Y-12.424
N3415 Z-6.
N3420 G01 Z-6.5 F258.
N3425 X7.59 Y-12.42 Z-6.587
N3430 X7.571 Y-12.409 Z-6.671
N3435 X7.539 Y-12.39 Z-6.75
N3440 X7.496 Y-12.364 Z-6.821
N3445 X7.443 Y-12.333 Z-6.883
N3450 X7.382 Y-12.296 Z-6.933
N3455 X7.314 Y-12.256 Z-6.97
N3460 X7.241 Y-12.213 Z-6.992
N3465 X7.167 Y-12.169 Z-7.
N3470 G03 X6.413 Y-11.947 I-0.809 J-1.36
N3475 G01 X4.679
N3480 X4.578 Y-11.946
N3485 X4.079 Y-11.967
N3490 X3.507 Y-12.01
N3495 X2.703 Y-12.098
N3500 X1.9 Y-12.184
N3505 X1.094 Y-12.245
N3510 X0.286 Y-12.268
N3515 X-0.522 Y-12.248
N3520 X-1.327 Y-12.18
N3525 X-2.127 Y-12.062
N3530 X-2.592 Y-11.963
N3535 X-2.812 Y-11.928
N3540 X-3.034 Y-11.916
N3545 X-3.257 Y-11.928
N3550 X-3.395 Y-11.942
N3555 X-3.945 Y-11.947
N3560 X-5.062
N3565 G03 X-5.544 Y-12.464 I0.017 J-0.5
N3570 G01 X-5.541 Y-12.551 Z-6.992
N3575 X-5.538 Y-12.635 Z-6.97
N3580 X-5.535 Y-12.714 Z-6.933
N3585 X-5.533 Y-12.786 Z-6.883
N3590 X-5.531 Y-12.847 Z-6.821
N3595 X-5.529 Y-12.897 Z-6.75
N3600 X-5.528 Y-12.934 Z-6.671
N3605 X-5.527 Y-12.957 Z-6.587
N3610 Y-12.964 Z-6.5
N3615 G00 Z5.
N3620 X-11.032 Y-10.035
N3625 Z-6.
N3630 G01 Z-6.5 F258.
N3635 X-11.028 Y-10.028 Z-6.587
N3640 X-11.017 Y-10.008 Z-6.671
N3645 X-10.998 Y-9.977 Z-6.75
N3650 X-10.973 Y-9.933 Z-6.821
N3655 X-10.943 Y-9.88 Z-6.883
N3660 X-10.907 Y-9.818 Z-6.933
N3665 X-10.868 Y-9.749 Z-6.97
N3670 X-10.826 Y-9.676 Z-6.992
N3675 X-10.783 Y-9.601 Z-7.
N3680 G03 X-10.573 Y-8.844 I-1.372 J0.788
N3685 G01 X-10.575 Y-8.716
N3690 Y-7.982
N3695 X-10.585 Y-7.783
N3700 X-10.597 Y-7.633
N3705 X-10.617 Y-7.484
N3710 X-10.645 Y-7.314
N3715 X-10.686 Y-7.114
N3720 X-10.747 Y-6.859
N3725 X-10.856 Y-6.462
N3730 X-11.096 Y-5.69
N3735 X-11.355 Y-4.925
N3740 X-11.601 Y-4.155
N3745 X-11.818 Y-3.376
N3750 X-11.996 Y-2.588
N3755 X-12.131 Y-1.791
N3760 X-12.215 Y-0.987
N3765 X-12.25 Y-0.18
N3770 X-12.232 Y0.628
N3775 X-12.162 Y1.433
N3780 X-12.039 Y2.232
N3785 X-11.864 Y3.021
N3790 X-11.638 Y3.797
N3795 X-11.361 Y4.557
N3800 X-11.035 Y5.296
N3805 X-10.662 Y6.013
N3810 X-10.47 Y6.327
N3815 X-10.352 Y6.55
N3820 X-10.26 Y6.785
N3825 X-10.197 Y7.029
N3830 X-10.19 Y7.065
N3835 X-10.101 Y7.432
N3840 X-10.047 Y7.615
N3845 X-9.717 Y8.598
N3850 G03 X-10.054 Y9.22 I-0.479 J0.142
N3855 G01 X-10.137 Y9.244 Z-6.992
N3860 X-10.218 Y9.268 Z-6.97
N3865 X-10.294 Y9.291 Z-6.933
N3870 X-10.362 Y9.311 Z-6.883
N3875 X-10.421 Y9.329 Z-6.821
N3880 X-10.469 Y9.343 Z-6.75
N3885 X-10.505 Y9.353 Z-6.671
N3890 X-10.526 Y9.36 Z-6.587
N3895 X-10.533 Y9.362 Z-6.5
N3900 G00 Z5.
N3905 X-11.051 Y-9.166
N3910 Z-6.
N3915 G01 Z-6.5 F258.
N3920 X-11.048 Y-9.159 Z-6.587
N3925 X-11.036 Y-9.14 Z-6.671
N3930 X-11.017 Y-9.108 Z-6.75
N3935 X-10.992 Y-9.065 Z-6.821
N3940 X-10.96 Y-9.012 Z-6.883
N3945 X-10.924 Y-8.951 Z-6.933
N3950 X-10.883 Y-8.883 Z-6.97
N3955 X-10.84 Y-8.81 Z-6.992
N3960 X-10.796 Y-8.736 Z-7.
N3965 G03 X-10.575 Y-7.982 I-1.36 J0.809
N3970 G01 Y-6.78
N3975 X-10.588 Y-6.508
N3980 X-10.601 Y-6.358
N3985 X-10.622 Y-6.176
N3990 X-10.658 Y-5.938
N3995 X-10.723 Y-5.59
N4000 X-10.884 Y-4.863
N4005 X-11.085 Y-4.08
N4010 X-11.278 Y-3.295
N4015 X-11.44 Y-2.503
N4020 X-11.562 Y-1.704
N4025 X-11.637 Y-0.899
N4030 X-11.662 Y-0.092
N4035 X-11.634 Y0.716
N4040 X-11.552 Y1.52
N4045 X-11.416 Y2.317
N4050 X-11.226 Y3.102
N4055 X-10.982 Y3.873
N4060 X-10.686 Y4.625
N4065 X-10.567 Y4.878
N4070 X-10.478 Y5.097
N4075 X-10.414 Y5.324
N4080 X-10.376 Y5.556
N4085 X-10.268 Y6.514
N4090 X-10.226 Y6.881
N4095 X-10.197 Y7.029
N4100 G03 X-10.612 Y7.602 I-0.494 J0.079
N4105 G01 X-10.697 Y7.616 Z-6.992
N4110 X-10.78 Y7.629 Z-6.97
N4115 X-10.858 Y7.642 Z-6.933
N4120 X-10.929 Y7.653 Z-6.883
N4125 X-10.99 Y7.663 Z-6.821
N4130 X-11.039 Y7.671 Z-6.75
N4135 X-11.075 Y7.677 Z-6.671
N4140 X-11.098 Y7.68 Z-6.587
N4145 X-11.105 Y7.682 Z-6.5
N4150 G00 Z5.
N4155 X-11.051 Y-7.964
N4160 Z-6.
N4165 G01 Z-6.5 F258.
N4170 X-11.048 Y-7.957 Z-6.587
N4175 X-11.036 Y-7.938 Z-6.671
N4180 X-11.017 Y-7.906 Z-6.75
N4185 X-10.992 Y-7.863 Z-6.821
N4190 X-10.96 Y-7.81 Z-6.883
N4195 X-10.924 Y-7.749 Z-6.933
N4200 X-10.883 Y-7.681 Z-6.97
N4205 X-10.84 Y-7.608 Z-6.992
N4210 X-10.796 Y-7.534 Z-7.
N4215 G03 X-10.575 Y-6.78 I-1.36 J0.809
N4220 G01 Y-5.129
N4225 X-10.593 Y-4.769
N4230 X-10.615 Y-4.501
N4235 X-10.679 Y-3.955
N4240 X-10.922 Y-2.357
N4245 X-11.016 Y-1.554
N4250 X-11.069 Y-0.748
N4255 X-11.075 Y0.061
N4260 X-11.029 Y0.868
N4265 X-10.928 Y1.67
N4270 X-10.772 Y2.463
N4275 X-10.612 Y3.052
N4280 X-10.573 Y3.224
N4285 X-10.548 Y3.399
N4290 X-10.538 Y3.575
N4295 G03 X-11.046 Y4.067 I-0.5 J-0.009
N4300 G01 X-11.133 Y4.065 Z-6.992
N4305 X-11.217 Y4.064 Z-6.97
N4310 X-11.296 Y4.063 Z-6.933
N4315 X-11.367 Y4.061 Z-6.883
N4320 X-11.429 Y4.06 Z-6.821
N4325 X-11.479 Y4.059 Z-6.75
N4330 X-11.516 Z-6.671
N4335 X-11.538 Y4.058 Z-6.587
N4340 X-11.546 Z-6.5
N4345 G00 Z5.
N4350 X-11.051 Y-6.312
N4355 Z-6.
N4360 G01 Z-6.5 F258.
N4365 X-11.048 Y-6.306 Z-6.587
N4370 X-11.036 Y-6.286 Z-6.671
N4375 X-11.017 Y-6.255 Z-6.75
N4380 X-10.992 Y-6.212 Z-6.821
N4385 X-10.96 Y-6.159 Z-6.883
N4390 X-10.924 Y-6.097 Z-6.933
N4395 X-10.883 Y-6.029 Z-6.97
N4400 X-10.84 Y-5.957 Z-6.992
N4405 X-10.796 Y-5.882 Z-7.
N4410 G03 X-10.575 Y-5.129 I-1.36 J0.809
N4415 G01 X-10.574 Y1.376
N4420 Y1.56
N4425 X-10.531 Y3.945
N4430 X-10.492 Y4.496
N4435 X-10.473 Y4.679
N4440 X-10.376 Y5.556
N4445 G03 X-10.836 Y6.092 I-0.499 J0.038
N4450 G01 X-10.923 Y6.099 Z-6.992
N4455 X-11.007 Y6.105 Z-6.97
N4460 X-11.085 Y6.111 Z-6.933
N4465 X-11.157 Y6.117 Z-6.883
N4470 X-11.218 Y6.121 Z-6.821
N4475 X-11.268 Y6.125 Z-6.75
N4480 X-11.305 Y6.128 Z-6.671
N4485 X-11.327 Y6.13 Z-6.587
N4490 X-11.335 Z-6.5
N4495 G00 Z5.
N4500 X10.601 Y9.285
N4505 Z-6.
N4510 G01 Z-6.5 F258.
N4515 X10.6 Y9.278 Z-6.587
N4520 X10.595 Y9.256 Z-6.671
N4525 X10.588 Y9.219 Z-6.75
N4530 X10.579 Y9.17 Z-6.821
N4535 X10.567 Y9.11 Z-6.883
N4540 X10.553 Y9.04 Z-6.933
N4545 X10.538 Y8.962 Z-6.97
N4550 X10.522 Y8.88 Z-6.992
N4555 X10.506 Y8.794 Z-7.
N4560 G03 X10.551 Y8.01 I1.553 J-0.303
N4565 G01 X10.693 Y7.615
N4570 X10.735 Y7.484
N4575 X10.821 Y7.065
N4580 X10.849 Y6.881
N4585 X10.862 Y6.78
N4590 X10.907 Y6.535
N4595 X10.953 Y6.321
N4600 X11.036 Y5.995
N4605 X11.259 Y5.218
N4610 X11.503 Y4.448
N4615 X11.73 Y3.672
N4620 X11.924 Y2.888
N4625 X12.077 Y2.094
N4630 X12.183 Y1.292
N4635 X12.239 Y0.486
N4640 X12.243 Y-0.322
N4645 X12.194 Y-1.129
N4650 X12.092 Y-1.931
N4655 X11.937 Y-2.724
N4660 X11.731 Y-3.505
N4665 X11.475 Y-4.272
N4670 X11.389 Y-4.494
N4675 X11.309 Y-4.745
N4680 X11.26 Y-5.005
N4685 X11.244 Y-5.269
N4690 Y-6.725
N4695 G03 X11.761 Y-7.207 I0.5 J0.017
N4700 G01 X11.848 Y-7.204 Z-6.992
N4705 X11.932 Y-7.201 Z-6.97
N4710 X12.011 Y-7.198 Z-6.933
N4715 X12.082 Y-7.196 Z-6.883
N4720 X12.144 Y-7.194 Z-6.821
N4725 X12.194 Y-7.192 Z-6.75
N4730 X12.231 Y-7.191 Z-6.671
N4735 X12.253 Y-7.19 Z-6.587
N4740 X12.261 Z-6.5
N4745 G00 Z5.
N4750 X5.758 Y-12.433
N4755 Z-6.
N4760 G01 Z-6.5 F258.
N4765 X5.751 Y-12.429 Z-6.587
N4770 X5.732 Y-12.418 Z-6.671
N4775 X5.7 Y-12.399 Z-6.75
N4780 X5.658 Y-12.373 Z-6.821
N4785 X5.605 Y-12.341 Z-6.883
N4790 X5.544 Y-12.304 Z-6.933
N4795 X5.476 Y-12.263 Z-6.97
N4800 X5.404 Y-12.219 Z-6.992
N4805 X5.33 Y-12.174 Z-7.
N4810 G03 X4.578 Y-11.946 I-0.82 J-1.353
N4815 G01 X4.129 Y-11.94
N4820 X3.945 Y-11.93
N4825 X3.762 Y-11.908
N4830 X3.578 Y-11.87
N4835 X3.536 Y-11.86
N4840 X3.375 Y-11.829
N4845 X3.227 Y-11.805
N4850 X3.065 Y-11.785
N4855 X2.815 Y-11.764
N4860 X2.473 Y-11.746
N4865 X1.665 Y-11.73
N4870 X0.857 Y-11.731
N4875 X0.049 Y-11.713
N4880 X-0.758 Y-11.661
N4885 X-1.41 Y-11.582
N4890 X-1.773 Y-11.571
N4895 X-2.133 Y-11.623
N4900 X-2.477 Y-11.737
N4905 X-2.661 Y-11.804
N4910 X-2.844 Y-11.857
N4915 X-3.028 Y-11.895
N4920 X-3.211 Y-11.923
N4925 X-3.257 Y-11.928
N4930 G03 X-3.684 Y-12.491 Z-6.8 I0.068 J-0.495
N4935 X-3.182 Y-12.923 I0.495 J0.068
N4940 G01 X3.405 Y-12.841
N4945 G03 X3.88 Y-12.477 I-0.006 J0.5
N4950 X3.536 Y-11.86 Z-7. I-0.481 J0.137
N4955 G01 X3.438 Y-11.836
N4960 X3.211 Y-11.764
N4965 X3.028 Y-11.689
N4970 X2.946 Y-11.652
N4975 X2.809 Y-11.591
N4980 X2.666 Y-11.543
N4985 X2.522 Y-11.503
N4990 X2.372 Y-11.467
N4995 X2.185 Y-11.429
N5000 X1.913 Y-11.383
N5005 X1.515 Y-11.329
N5010 X0.711 Y-11.248
N5015 X-0.094 Y-11.179
N5020 X-0.584 Y-11.135
N5025 X-0.69 Y-11.129
N5030 X-1.021 Y-11.137
N5035 X-1.346 Y-11.197
N5040 X-1.658 Y-11.309
N5045 X-1.948 Y-11.469
N5050 X-2.11 Y-11.562
N5055 X-2.294 Y-11.658
N5060 X-2.477 Y-11.737
N5065 G03 X-2.715 Y-12.403 Z-6.8 I0.214 J-0.452
N5070 X-2.252 Y-12.689 I0.452 J0.214
N5075 G01 X2.705 Y-12.584
N5080 G03 X3.126 Y-12.336 I-0.011 J0.5
N5085 X2.946 Y-11.652 Z-7. I-0.432 J0.251
N5090 G01 X2.844 Y-11.598
N5095 X2.661 Y-11.497
N5100 X2.541 Y-11.416
N5105 X2.413 Y-11.338
N5110 X2.281 Y-11.267
N5115 X2.145 Y-11.204
N5120 X2.005 Y-11.149
N5125 X1.857 Y-11.098
N5130 X1.687 Y-11.045
N5135 X1.474 Y-10.987
N5140 X1.192 Y-10.92
N5145 X0.793 Y-10.839
N5150 X0.482 Y-10.786
N5155 X0.218 Y-10.751
N5160 X0.016 Y-10.731
N5165 X-0.134 Y-10.721
N5170 X-0.17 Y-10.72
N5175 X-0.561 Y-10.743
N5180 X-0.942 Y-10.837
N5185 X-1.298 Y-10.998
N5190 X-1.62 Y-11.222
N5195 X-1.696 Y-11.285
N5200 X-1.743 Y-11.323
N5205 X-1.927 Y-11.455
N5210 X-1.948 Y-11.469
N5215 G03 X-2.065 Y-12.166 Z-6.8 I0.29 J-0.407
N5220 X-1.65 Y-12.376 I0.407 J0.29
N5225 G01 X2.254 Y-12.32
N5230 G03 X2.651 Y-12.114 I-0.007 J0.5
N5235 X2.541 Y-11.416 Z-7. I-0.404 J0.294
N5240 G01 X2.477 Y-11.373
N5245 X2.364 Y-11.285
N5250 X2.294 Y-11.228
N5255 X2.184 Y-11.127
N5260 X2.069 Y-11.031
N5265 X1.947 Y-10.944
N5270 X1.819 Y-10.866
N5275 X1.686 Y-10.796
N5280 X1.55 Y-10.733
N5285 X1.412 Y-10.674
N5290 X1.269 Y-10.621
N5295 X1.117 Y-10.569
N5300 X0.963 Y-10.522
N5305 X0.818 Y-10.484
N5310 X0.672 Y-10.45
N5315 X0.525 Y-10.423
N5320 X0.438 Y-10.41
N5325 X0.044 Y-10.387
N5330 X-0.347 Y-10.437
N5335 X-0.723 Y-10.558
N5340 X-1.07 Y-10.745
N5345 X-1.377 Y-10.993
N5350 X-1.56 Y-11.171
N5355 X-1.62 Y-11.222
N5360 G03 X-1.657 Y-11.928 Z-6.8 I0.335 J-0.371
N5365 X-1.268 Y-12.093 I0.372 J0.335
N5370 G01 X1.851 Y-11.983
N5375 G03 X2.19 Y-11.834 I-0.018 J0.5
N5380 X2.184 Y-11.127 Z-7. I-0.356 J0.351
N5385 G01 X2.156 Y-11.102
N5390 X2.11 Y-11.056
N5395 X1.979 Y-10.918
N5400 X1.927 Y-10.858
N5405 X1.901 Y-10.821
N5410 X1.809 Y-10.702
N5415 X1.695 Y-10.604
N5420 X1.574 Y-10.516
N5425 X1.447 Y-10.437
N5430 X1.314 Y-10.366
N5435 X1.179 Y-10.302
N5440 X1.039 Y-10.248
N5445 X0.894 Y-10.199
N5450 X0.55 Y-10.134
N5455 X0.2 Y-10.127
N5460 X-0.147 Y-10.178
N5465 X-0.48 Y-10.287
N5470 X-0.79 Y-10.45
N5475 X-1.069 Y-10.662
N5480 X-1.308 Y-10.918
N5485 G03 X-1.253 Y-11.623 Z-6.8 I0.38 J-0.325
N5490 X-0.897 Y-11.742 I0.325 J0.38
N5495 G01 X1.512 Y-11.591
N5500 G03 X1.753 Y-11.512 I-0.031 J0.499
N5505 X1.901 Y-10.821 Z-7. I-0.272 J0.42
N5510 G01 X1.713 Y-10.551
N5515 X1.694 Y-10.521
N5520 X1.61 Y-10.397
N5525 X1.505 Y-10.289
N5530 X1.389 Y-10.194
N5535 X1.263 Y-10.113
N5540 X1.131 Y-10.042
N5545 X0.78 Y-9.934
N5550 X0.414 Y-9.897
N5555 X0.049 Y-9.93
N5560 X-0.304 Y-10.035
N5565 X-0.629 Y-10.205
N5570 X-0.915 Y-10.435
N5575 X-1.151 Y-10.717
N5580 G03 X-0.997 Y-11.407 Z-6.8 I0.422 J-0.268
N5585 X-0.675 Y-11.482 I0.268 J0.422
N5590 G01 X1.314 Y-11.264
N5595 X1.38 Y-11.252
N5600 X1.445 Y-11.231
N5605 X1.506 Y-11.202
N5610 G03 X1.694 Y-10.521 Z-7. I-0.247 J0.435
N5615 G01 X1.601 Y-10.368
N5620 X1.544 Y-10.257
N5625 X1.47 Y-10.127
N5630 X1.369 Y-10.015
N5635 X1.253 Y-9.921
N5640 X1.124 Y-9.843
N5645 X0.989 Y-9.778
N5650 X0.848 Y-9.728
N5655 X0.703 Y-9.691
N5660 X0.555 Y-9.665
N5665 X0.522 Y-9.662
N5670 X0.214 Y-9.668
N5675 X-0.087 Y-9.734
N5680 X-0.37 Y-9.856
N5685 X-0.624 Y-10.03
N5690 X-0.84 Y-10.25
N5695 X-1.009 Y-10.507
N5700 X-1.038 Y-10.551
N5705 X-1.151 Y-10.717
N5710 G03 X-0.997 Y-11.407 Z-6.8 I0.422 J-0.268
N5715 X-0.592 Y-11.466 I0.268 J0.422
N5720 G01 X1.227 Y-10.948
N5725 X1.3 Y-10.921
N5730 G03 X1.544 Y-10.257 Z-7. I-0.21 J0.454
N5735 G01 X1.507 Y-10.184
N5740 X1.448 Y-10.038
N5745 X1.385 Y-9.902
N5750 X1.29 Y-9.786
N5755 X1.176 Y-9.688
N5760 X1.05 Y-9.606
N5765 X0.915 Y-9.541
N5770 X0.618 Y-9.469
N5775 X0.312 Y-9.461
N5780 X0.011 Y-9.516
N5785 X-0.272 Y-9.632
N5790 X-0.524 Y-9.804
N5795 X-0.735 Y-10.026
N5800 X-0.896 Y-10.286
N5805 G03 X-0.64 Y-10.945 Z-6.8 I0.458 J-0.201
N5810 X-0.342 Y-10.978 I0.202 J0.457
N5815 G01 X1.074 Y-10.699
N5820 X1.149 Y-10.678
N5825 G03 X1.448 Y-10.038 Z-7. I-0.171 J0.47
N5830 G01 X1.433 Y-10.001
N5835 X1.376 Y-9.821
N5840 X1.331 Y-9.678
N5845 X1.237 Y-9.561
N5850 X1.122 Y-9.466
N5855 X0.994 Y-9.387
N5860 X0.857 Y-9.326
N5865 X0.714 Y-9.28
N5870 X0.415 Y-9.256
N5875 X0.118 Y-9.297
N5880 X-0.163 Y-9.403
N5885 X-0.414 Y-9.568
N5890 X-0.622 Y-9.783
N5895 X-0.779 Y-10.039
N5900 X-0.847 Y-10.184
N5905 X-0.896 Y-10.286
N5910 G03 X-0.64 Y-10.945 Z-6.8 I0.458 J-0.201
N5915 X-0.243 Y-10.947 I0.202 J0.457
N5920 G01 X0.991 Y-10.421
N5925 X1.013 Y-10.412 Z-6.806
N5930 X1.083 Y-10.383 Z-6.825
N5935 G03 X1.376 Y-9.821 Z-7. I-0.196 J0.46
N5940 G01 X1.331 Y-9.634
N5945 X1.288 Y-9.49
N5950 X1.2 Y-9.369
N5955 X1.089 Y-9.267
N5960 X0.962 Y-9.187
N5965 X0.826 Y-9.125
N5970 X0.549 Y-9.077
N5975 X0.268 Y-9.09
N5980 X-0.003 Y-9.164
N5985 X-0.252 Y-9.296
N5990 X-0.465 Y-9.479
N5995 X-0.633 Y-9.705
N6000 X-0.748 Y-9.962
N6005 G03 X-0.403 Y-10.579 Z-6.8 I0.481 J-0.136
N6010 X-0.111 Y-10.573 I0.136 J0.481
N6015 G01 X0.943 Y-10.227
N6020 X0.966 Y-10.22 Z-6.806
N6025 X0.996 Y-10.21 Z-6.814
N6030 G03 X1.331 Y-9.634 Z-7. I-0.156 J0.475
N6035 G01 X1.286 Y-9.45
N6040 X1.283 Y-9.42
N6045 X1.26 Y-9.271
N6050 X1.166 Y-9.154
N6055 X1.05 Y-9.06
N6060 X0.92 Y-8.984
N6065 X0.78 Y-8.929
N6070 X0.635 Y-8.892
N6075 X0.346 Y-8.891
N6080 X0.065 Y-8.958
N6085 X-0.192 Y-9.089
N6090 X-0.412 Y-9.277
N6095 X-0.581 Y-9.511
N6100 X-0.691 Y-9.778
N6105 G03 X-0.322 Y-10.381 Z-6.8 I0.486 J-0.117
N6110 X-0.001 Y-10.352 I0.117 J0.486
N6115 G01 X0.828 Y-9.982
N6120 X0.85 Y-9.972 Z-6.806
N6125 X0.987 Y-9.911 Z-6.844
N6130 G03 X1.283 Y-9.42 Z-7. I-0.204 J0.457
N6135 G01 X1.267 Y-9.267
N6140 X1.265 Y-9.236
N6145 X1.256 Y-9.162
N6150 X1.185 Y-9.029
N6155 X1.083 Y-8.919
N6160 X0.962 Y-8.83
N6165 X0.827 Y-8.766
N6170 X0.684 Y-8.72
N6175 X0.677 Y-8.719
N6180 X0.381 Y-8.708
N6185 X0.092 Y-8.773
N6190 X-0.172 Y-8.908
N6195 X-0.392 Y-9.106
N6200 X-0.556 Y-9.353
N6205 X-0.651 Y-9.634
N6210 X-0.691 Y-9.778
N6215 G03 X-0.322 Y-10.381 Z-6.8 I0.486 J-0.117
N6220 X0.071 Y-10.312 I0.117 J0.486
N6225 G01 X0.811 Y-9.822
N6230 X0.831 Y-9.809 Z-6.806
N6235 X1.041 Y-9.67 Z-6.87
N6240 G03 X1.265 Y-9.236 Z-7. I-0.276 J0.417
N6245 G01 X1.254 Y-9.083
N6250 X1.236 Y-8.934
N6255 X1.151 Y-8.811
N6260 X1.043 Y-8.707
N6265 X0.915 Y-8.628
N6270 X0.778 Y-8.569
N6275 X0.632 Y-8.532
N6280 X0.483 Y-8.513
N6285 X0.333 Y-8.515
N6290 X0.185 Y-8.534
N6295 X0.161 Y-8.54
N6300 X-0.075 Y-8.633
N6305 X-0.283 Y-8.78
N6310 X-0.447 Y-8.974
N6315 X-0.56 Y-9.202
N6320 X-0.614 Y-9.45
N6325 X-0.651 Y-9.634
N6330 G03 X-0.383 Y-10.151 Z-6.841 I0.479 J-0.08
N6335 G01 X-0.309 Y-10.183 Z-6.82
N6340 X-0.234 Y-10.21 Z-6.8
N6345 G03 X1.019 Y-9.816 I0.347 J1.088
N6350 X1.254 Y-9.083 Z-7. I-0.907 J0.694
N6355 G01 X1.241 Y-8.9
N6360 X1.236 Y-8.825
N6365 X1.177 Y-8.687
N6370 X1.08 Y-8.573
N6375 X0.962 Y-8.48
N6380 X0.83 Y-8.408
N6385 X0.689 Y-8.357
N6390 X0.543 Y-8.324
N6395 X0.267 Y-8.341
N6400 X0.004 Y-8.428
N6405 X-0.228 Y-8.579
N6410 X-0.413 Y-8.784
N6415 X-0.54 Y-9.03
N6420 X-0.6 Y-9.3
N6425 G03 X-0.428 Y-9.684 Z-6.889 I0.458 J-0.025
N6430 X-0.125 Y-9.851 Z-6.8 I0.641 J0.804
N6435 X0.942 Y-9.605 I0.338 J0.972
N6440 X1.241 Y-8.9 Z-7. I-0.729 J0.726
N6445 G01 X1.239 Y-8.747
N6450 X1.229 Y-8.598
N6455 X1.151 Y-8.47
N6460 X1.047 Y-8.361
N6465 X0.927 Y-8.272
N6470 X0.792 Y-8.207
N6475 X0.649 Y-8.162
N6480 X0.394 Y-8.155
N6485 X0.145 Y-8.208
N6490 X-0.085 Y-8.318
N6495 X-0.283 Y-8.478
N6500 X-0.439 Y-8.679
N6505 X-0.543 Y-8.912
N6510 X-0.59 Y-9.162
N6515 X-0.597 Y-9.267
N6520 X-0.6 Y-9.3
N6525 G03 X-0.331 Y-9.742 Z-6.86 I0.456 J-0.025
N6530 G01 X-0.221 Y-9.785 Z-6.83
N6535 X-0.108 Y-9.815 Z-6.8
N6540 G03 X0.96 Y-9.463 I0.233 J1.09
N6545 X1.239 Y-8.747 Z-7. I-0.835 J0.738
N6550 G01 Y-8.57
N6555 X1.231 Y-8.42
N6560 X1.156 Y-8.29
N6565 X1.053 Y-8.181
N6570 X0.932 Y-8.093
N6575 X0.796 Y-8.029
N6580 X0.652 Y-7.988
N6585 X0.504 Y-7.966
N6590 X0.235 Y-8.002
N6595 X-0.017 Y-8.103
N6600 X-0.236 Y-8.263
N6605 X-0.409 Y-8.472
N6610 X-0.526 Y-8.717
N6615 X-0.578 Y-8.983
N6620 X-0.59 Y-9.162
N6625 G03 X-0.294 Y-9.602 Z-6.856 I0.451 J-0.015
N6630 G01 X-0.19 Y-9.634 Z-6.828
N6635 X-0.083 Y-9.657 Z-6.8
N6640 G03 X0.954 Y-9.285 I0.181 J1.127
N6645 X1.239 Y-8.57 Z-7. I-0.856 J0.755
N6650 G01 Y-8.386
N6655 X1.231 Y-8.237
N6660 X1.156 Y-8.107
N6665 X1.052 Y-7.999
N6670 X0.929 Y-7.912
N6675 X0.794 Y-7.847
N6680 X0.65 Y-7.806
N6685 X0.39 Y-7.803
N6690 X0.138 Y-7.862
N6695 X-0.094 Y-7.98
N6700 X-0.29 Y-8.15
N6705 X-0.441 Y-8.362
N6710 X-0.536 Y-8.604
N6715 X-0.571 Y-8.861
N6720 G03 X-0.364 Y-9.231 Z-6.887 I0.448 J0.009
N6725 X-0.049 Y-9.364 Z-6.8 I0.559 J0.881
N6730 X0.932 Y-9.089 I0.245 J1.014
N6735 X1.239 Y-8.386 Z-7. I-0.736 J0.739
N6740 G01 Y-8.203
N6745 X1.231 Y-8.053
N6750 X1.154 Y-7.924
N6755 X1.05 Y-7.816
N6760 X0.927 Y-7.73
N6765 X0.79 Y-7.669
N6770 X0.645 Y-7.631
N6775 X0.496 Y-7.612
N6780 X0.219 Y-7.656
N6785 X-0.039 Y-7.769
N6790 X-0.259 Y-7.943
N6795 X-0.427 Y-8.168
N6800 X-0.533 Y-8.428
N6805 X-0.569 Y-8.707
N6810 G03 X-0.347 Y-9.078 Z-6.885 I0.448 J0.016
N6815 X-0.037 Y-9.198 Z-6.8 I0.531 J0.912
N6820 X0.935 Y-8.907 I0.221 J1.032
N6825 X1.239 Y-8.203 Z-7. I-0.751 J0.741
N6830 G01 Y-8.019
N6835 X1.231 Y-7.87
N6840 X1.153 Y-7.741
N6845 X1.047 Y-7.635
N6850 X0.923 Y-7.551
N6855 X0.787 Y-7.488
N6860 X0.642 Y-7.449
N6865 X0.493 Y-7.432
N6870 X0.217 Y-7.475
N6875 X-0.04 Y-7.588
N6880 X-0.26 Y-7.761
N6885 X-0.428 Y-7.986
N6890 X-0.533 Y-8.245
N6895 X-0.569 Y-8.523
N6900 Y-8.707
N6905 G03 X-0.233 Y-9.124 Z-6.854 I0.446 J0.016
N6910 G01 X-0.13 Y-9.145 Z-6.827
N6915 X-0.025 Y-9.157 Z-6.8
N6920 G03 X0.962 Y-8.739 I0.083 J1.179
N6925 X1.239 Y-8.019 Z-7. I-0.905 J0.761
N6930 G01 Y-7.836
N6935 X1.231 Y-7.686
N6940 X1.151 Y-7.559
N6945 X1.045 Y-7.453
N6950 X0.921 Y-7.369
N6955 X0.785 Y-7.306
N6960 X0.64 Y-7.268
N6965 X0.491 Y-7.251
N6970 X0.214 Y-7.295
N6975 X-0.042 Y-7.407
N6980 X-0.261 Y-7.58
N6985 X-0.428 Y-7.804
N6990 X-0.533 Y-8.063
N6995 X-0.569 Y-8.34
N7000 Y-8.523
N7005 G03 X-0.233 Y-8.94 Z-6.854 I0.446 J0.016
N7010 G01 X-0.13 Y-8.961 Z-6.827
N7015 X-0.025 Y-8.973 Z-6.8
N7020 G03 X0.962 Y-8.555 I0.083 J1.179
N7025 X1.239 Y-7.836 Z-7. I-0.904 J0.761
N7030 G01 Y-7.652
N7035 X1.231 Y-7.503
N7040 X1.15 Y-7.376
N7045 X1.044 Y-7.271
N7050 X0.919 Y-7.187
N7055 X0.783 Y-7.125
N7060 X0.637 Y-7.087
N7065 X0.488 Y-7.07
N7070 X0.213 Y-7.113
N7075 X-0.043 Y-7.226
N7080 X-0.261 Y-7.399
N7085 X-0.428 Y-7.622
N7090 X-0.533 Y-7.881
N7095 X-0.569 Y-8.157
N7100 Y-8.34
N7105 G03 X-0.233 Y-8.757 Z-6.854 I0.446 J0.016
N7110 G01 X-0.13 Y-8.778 Z-6.827
N7115 X-0.025 Y-8.79 Z-6.8
N7120 G03 X0.962 Y-8.372 I0.083 J1.179
N7125 X1.239 Y-7.652 Z-7. I-0.905 J0.761
N7130 G01 Y-7.469
N7135 X1.235 Y-7.394
N7140 X1.179 Y-7.255
N7145 X1.086 Y-7.137
N7150 X0.969 Y-7.042
N7155 X0.839 Y-6.969
N7160 X0.696 Y-6.922
N7165 X0.549 Y-6.895
N7170 X0.261 Y-6.927
N7175 X-0.008 Y-7.033
N7180 X-0.24 Y-7.207
N7185 X-0.419 Y-7.435
N7190 X-0.531 Y-7.702
N7195 X-0.569 Y-7.989
N7200 Y-8.157
N7205 G03 X-0.232 Y-8.575 Z-6.853 I0.446 J0.016
N7210 G01 X-0.13 Y-8.596 Z-6.827
N7215 X-0.025 Y-8.608 Z-6.8
N7220 X0.056 Y-8.61
N7225 X0.057
N7230 G03 X0.962 Y-8.188 J1.183
N7235 X1.239 Y-7.469 Z-7. I-0.906 J0.761
N7240 G01 Y-7.331
N7245 X1.231 Y-7.181
N7250 X1.162 Y-7.048
N7255 X1.061 Y-6.937
N7260 X0.941 Y-6.847
N7265 X0.807 Y-6.78
N7270 X0.663 Y-6.737
N7275 X0.399 Y-6.734
N7280 X0.142 Y-6.794
N7285 X-0.093 Y-6.915
N7290 X-0.292 Y-7.089
N7295 X-0.443 Y-7.306
N7300 X-0.537 Y-7.552
N7305 X-0.569 Y-7.814
N7310 Y-7.989
N7315 G03 X-0.25 Y-8.401 Z-6.858 I0.446 J0.016
N7320 G01 X-0.14 Y-8.428 Z-6.829
N7325 X-0.026 Y-8.444 Z-6.8
N7330 G03 X0.958 Y-8.048 I0.107 J1.154
N7335 X1.239 Y-7.331 Z-7. I-0.877 J0.757
N7340 G01 Y-7.147
N7345 X1.231 Y-6.997
N7350 X1.16 Y-6.865
N7355 X1.059 Y-6.755
N7360 X0.938 Y-6.667
N7365 X0.801 Y-6.604
N7370 X0.657 Y-6.564
N7375 X0.508 Y-6.545
N7380 X0.228 Y-6.587
N7385 X-0.032 Y-6.7
N7390 X-0.255 Y-6.875
N7395 X-0.426 Y-7.101
N7400 X-0.533 Y-7.363
N7405 X-0.569 Y-7.644
N7410 Y-7.814
N7415 G03 X-0.245 Y-8.228 Z-6.857 I0.446 J0.016
N7420 G01 X-0.136 Y-8.254 Z-6.828
N7425 X-0.026 Y-8.268 Z-6.8
N7430 G03 X0.959 Y-7.865 I0.099 J1.162
N7435 X1.239 Y-7.147 Z-7. I-0.886 J0.758
N7440 G01 Y-6.964
N7445 X1.231 Y-6.814
N7450 X1.158 Y-6.683
N7455 X1.055 Y-6.574
N7460 X0.932 Y-6.488
N7465 X0.797 Y-6.424
N7470 X0.652 Y-6.384
N7475 X0.503 Y-6.366
N7480 X0.224 Y-6.408
N7485 X-0.035 Y-6.52
N7490 X-0.256 Y-6.694
N7495 X-0.426 Y-6.919
N7500 X-0.533 Y-7.18
N7505 X-0.569 Y-7.46
N7510 Y-7.644
N7515 G03 X-0.237 Y-8.06 Z-6.855 I0.446 J0.016
N7520 G01 X-0.132 Y-8.083 Z-6.827
N7525 X-0.026 Y-8.096 Z-6.8
N7530 G03 X0.961 Y-7.683 I0.089 J1.173
N7535 X1.239 Y-6.964 Z-7. I-0.898 J0.76
N7540 G01 Y-6.787
N7545 X1.231 Y-6.637
N7550 X1.158 Y-6.506
N7555 X1.055 Y-6.397
N7560 X0.932 Y-6.311
N7565 X0.797 Y-6.245
N7570 X0.653 Y-6.206
N7575 X0.504 Y-6.186
N7580 X0.225 Y-6.227
N7585 X-0.034 Y-6.339
N7590 X-0.256 Y-6.512
N7595 X-0.426 Y-6.737
N7600 X-0.533 Y-6.998
N7605 X-0.569 Y-7.278
N7610 Y-7.46
N7615 G03 X-0.242 Y-7.874 Z-6.856 I0.446 J0.016
N7620 G01 X-0.135 Y-7.898 Z-6.828
N7625 X-0.026 Y-7.913 Z-6.8
N7630 G03 X0.96 Y-7.505 I0.095 J1.166
N7635 X1.239 Y-6.787 Z-7. I-0.891 J0.759
N7640 G01 Y-6.603
N7645 X1.231 Y-6.454
N7650 X1.156 Y-6.324
N7655 X1.052 Y-6.216
N7660 X0.929 Y-6.13
N7665 X0.794 Y-6.065
N7670 X0.649 Y-6.025
N7675 X0.5 Y-6.007
N7680 X0.222 Y-6.048
N7685 X-0.036 Y-6.159
N7690 X-0.257 Y-6.332
N7695 X-0.427 Y-6.557
N7700 X-0.533 Y-6.817
N7705 X-0.569 Y-7.096
N7710 Y-7.278
N7715 G03 X-0.241 Y-7.693 Z-6.856 I0.446 J0.016
N7720 G01 X-0.134 Y-7.717 Z-6.828
N7725 X-0.026 Y-7.73 Z-6.8
N7730 G03 X0.96 Y-7.322 I0.094 J1.168
N7735 X1.239 Y-6.603 Z-7. I-0.892 J0.759
N7740 G01 Y-6.42
N7745 X1.231 Y-6.27
N7750 X1.154 Y-6.141
N7755 X1.05 Y-6.034
N7760 X0.926 Y-5.948
N7765 X0.791 Y-5.884
N7770 X0.646 Y-5.845
N7775 X0.497 Y-5.826
N7780 X0.22 Y-5.868
N7785 X-0.038 Y-5.979
N7790 X-0.258 Y-6.152
N7795 X-0.427 Y-6.376
N7800 X-0.533 Y-6.636
N7805 X-0.569 Y-6.914
N7810 Y-7.096
N7815 G03 X-0.24 Y-7.511 Z-6.855 I0.446 J0.016
N7820 G01 X-0.134 Y-7.534 Z-6.828
N7825 X-0.026 Y-7.548 Z-6.8
N7830 G03 X0.96 Y-7.138 I0.093 J1.169
N7835 X1.239 Y-6.42 Z-7. I-0.893 J0.759
N7840 G01 Y-6.236
N7845 X1.231 Y-6.087
N7850 X1.153 Y-5.959
N7855 X1.048 Y-5.852
N7860 X0.924 Y-5.767
N7865 X0.788 Y-5.703
N7870 X0.643 Y-5.664
N7875 X0.495 Y-5.646
N7880 X0.218 Y-5.688
N7885 X-0.039 Y-5.799
N7890 X-0.259 Y-5.972
N7895 X-0.427 Y-6.196
N7900 X-0.533 Y-6.455
N7905 X-0.569 Y-6.733
N7910 Y-6.914
N7915 G03 X-0.239 Y-7.33 Z-6.855 I0.446 J0.016
N7920 G01 X-0.133 Y-7.353 Z-6.828
N7925 X-0.026 Y-7.366 Z-6.8
N7930 G03 X0.961 Y-6.955 I0.091 J1.171
N7935 X1.239 Y-6.236 Z-7. I-0.895 J0.76
N7940 G01 Y-6.053
N7945 X1.231 Y-5.903
N7950 X1.152 Y-5.776
N7955 X1.046 Y-5.67
N7960 X0.922 Y-5.585
N7965 X0.786 Y-5.522
N7970 X0.641 Y-5.483
N7975 X0.492 Y-5.465
N7980 X0.216 Y-5.507
N7985 X-0.04 Y-5.619
N7990 X-0.26 Y-5.792
N7995 X-0.428 Y-6.015
N8000 X-0.533 Y-6.274
N8005 X-0.569 Y-6.551
N8010 Y-6.733
N8015 G03 X-0.237 Y-7.149 Z-6.855 I0.446 J0.016
N8020 G01 X-0.132 Y-7.171 Z-6.827
N8025 X-0.026 Y-7.184 Z-6.8
N8030 G03 X0.961 Y-6.772 I0.089 J1.172
N8035 X1.239 Y-6.053 Z-7. I-0.897 J0.76
N8040 G01 Y-5.869
N8045 X1.231 Y-5.72
N8050 X1.151 Y-5.593
N8055 X1.045 Y-5.487
N8060 X0.921 Y-5.403
N8065 X0.784 Y-5.34
N8070 X0.639 Y-5.302
N8075 X0.49 Y-5.284
N8080 X0.214 Y-5.327
N8085 X-0.041 Y-5.438
N8090 X-0.26 Y-5.611
N8095 X-0.428 Y-5.835
N8100 X-0.533 Y-6.093
N8105 X-0.569 Y-6.37
N8110 Y-6.551
N8115 G03 X-0.236 Y-6.968 Z-6.854 I0.446 J0.016
N8120 G01 X-0.132 Y-6.99 Z-6.827
N8125 X-0.026 Y-7.003 Z-6.8
N8130 G03 X0.961 Y-6.588 I0.087 J1.174
N8135 X1.239 Y-5.869 Z-7. I-0.899 J0.76
N8140 G01 Y-5.686
N8145 X1.231 Y-5.536
N8150 X1.15 Y-5.41
N8155 X1.043 Y-5.305
N8160 X0.919 Y-5.221
N8165 X0.783 Y-5.158
N8170 X0.638 Y-5.12
N8175 X0.489 Y-5.103
N8180 X0.213 Y-5.146
N8185 X-0.042 Y-5.258
N8190 X-0.261 Y-5.431
N8195 X-0.428 Y-5.654
N8200 X-0.533 Y-5.912
N8205 X-0.569 Y-6.189
N8210 Y-6.37
N8215 G03 X-0.235 Y-6.787 Z-6.854 I0.446 J0.016
N8220 G01 X-0.131 Y-6.808 Z-6.827
N8225 X-0.026 Y-6.821 Z-6.8
N8230 G03 X0.962 Y-6.405 I0.086 J1.176
N8235 X1.239 Y-5.686 Z-7. I-0.901 J0.76
N8240 G01 Y-5.503
N8245 X1.235 Y-5.428
N8250 X1.179 Y-5.288
N8255 X1.086 Y-5.171
N8260 X0.97 Y-5.076
N8265 X0.839 Y-5.002
N8270 X0.696 Y-4.955
N8275 X0.549 Y-4.928
N8280 X0.261 Y-4.96
N8285 X-0.008 Y-5.066
N8290 X-0.24 Y-5.239
N8295 X-0.419 Y-5.467
N8300 X-0.531 Y-5.734
N8305 X-0.569 Y-6.021
N8310 Y-6.189
N8315 G03 X-0.234 Y-6.605 Z-6.854 I0.446 J0.016
N8320 G01 X-0.13 Y-6.627 Z-6.827
N8325 X-0.025 Y-6.639 Z-6.8
N8330 G03 X0.962 Y-6.222 I0.084 J1.178
N8335 X1.239 Y-5.503 Z-7. I-0.903 J0.76
N8340 G01 Y-5.336
N8345 X1.231 Y-5.187
N8350 X1.152 Y-5.059
N8355 X1.047 Y-4.952
N8360 X0.924 Y-4.866
N8365 X0.788 Y-4.804
N8370 X0.643 Y-4.765
N8375 X0.381 Y-4.768
N8380 X0.127 Y-4.834
N8385 X-0.103 Y-4.958
N8390 X-0.298 Y-5.133
N8395 X-0.446 Y-5.349
N8400 X-0.538 Y-5.594
N8405 X-0.569 Y-5.854
N8410 Y-6.021
N8415 G03 X-0.235 Y-6.437 Z-6.854 I0.446 J0.016
N8420 G01 X-0.131 Y-6.459 Z-6.827
N8425 X-0.026 Y-6.471 Z-6.8
N8430 G03 X0.962 Y-6.055 I0.086 J1.176
N8435 X1.239 Y-5.336 Z-7. I-0.901 J0.76
N8440 G01 Y-5.174
N8445 X1.231 Y-5.024
N8450 X1.159 Y-4.893
N8455 X1.057 Y-4.783
N8460 X0.936 Y-4.695
N8465 X0.799 Y-4.634
N8470 X0.654 Y-4.594
N8475 X0.505 Y-4.576
N8480 X0.225 Y-4.62
N8485 X-0.034 Y-4.733
N8490 X-0.256 Y-4.909
N8495 X-0.426 Y-5.135
N8500 X-0.533 Y-5.397
N8505 X-0.569 Y-5.678
N8510 Y-5.854
N8515 G03 X-0.237 Y-6.27 Z-6.855 I0.446 J0.016
N8520 G01 X-0.132 Y-6.293 Z-6.827
N8525 X-0.026 Y-6.306 Z-6.8
N8530 G03 X0.961 Y-5.893 I0.089 J1.173
N8535 X1.239 Y-5.174 Z-7. I-0.898 J0.76
N8540 G01 Y-4.969
N8545 X1.231 Y-4.82
N8550 X1.15 Y-4.694
N8555 X1.042 Y-4.59
N8560 X0.916 Y-4.507
N8565 X0.779 Y-4.447
N8570 X0.633 Y-4.411
N8575 X0.373 Y-4.416
N8580 X0.121 Y-4.483
N8585 X-0.108 Y-4.607
N8590 X-0.301 Y-4.782
N8595 X-0.447 Y-4.998
N8600 X-0.538 Y-5.242
N8605 X-0.569 Y-5.5
N8610 Y-5.678
N8615 G03 X-0.22 Y-6.098 Z-6.85 I0.446 J0.016
N8620 G01 X-0.123 Y-6.115 Z-6.825
N8625 X-0.025 Y-6.125 Z-6.8
N8630 G03 X0.965 Y-5.69 I0.065 J1.197
N8635 X1.239 Y-4.969 Z-7. I-0.925 J0.763
N8640 G01 Y-4.807
N8645 X1.231 Y-4.657
N8650 X1.155 Y-4.528
N8655 X1.05 Y-4.421
N8660 X0.927 Y-4.335
N8665 X0.789 Y-4.276
N8670 X0.644 Y-4.239
N8675 X0.495 Y-4.222
N8680 X0.217 Y-4.268
N8685 X-0.04 Y-4.382
N8690 X-0.26 Y-4.558
N8695 X-0.428 Y-4.784
N8700 X-0.533 Y-5.045
N8705 X-0.569 Y-5.325
N8710 Y-5.5
N8715 G03 X-0.23 Y-5.918 Z-6.853 I0.446 J0.016
N8720 G01 X-0.128 Y-5.938 Z-6.826
N8725 X-0.025 Y-5.95 Z-6.8
N8730 G03 X0.963 Y-5.527 I0.078 J1.184
N8735 X1.239 Y-4.807 Z-7. I-0.91 J0.761
N8740 G01 Y-4.602
N8745 X1.235 Y-4.528
N8750 X1.174 Y-4.39
N8755 X1.078 Y-4.275
N8760 X0.959 Y-4.183
N8765 X0.827 Y-4.113
N8770 X0.683 Y-4.07
N8775 X0.535 Y-4.046
N8780 X0.249 Y-4.083
N8785 X-0.017 Y-4.193
N8790 X-0.246 Y-4.368
N8795 X-0.421 Y-4.596
N8800 X-0.532 Y-4.862
N8805 X-0.569 Y-5.148
N8810 Y-5.325
N8815 G03 X-0.213 Y-5.746 Z-6.848 I0.446 J0.016
N8820 G01 X-0.119 Y-5.761 Z-6.824
N8825 X-0.024 Y-5.769 Z-6.8
N8830 G03 X0.967 Y-5.324 I0.054 J1.209
N8835 X1.239 Y-4.602 Z-7. I-0.938 J0.764
N8840 G01 Y-4.465
N8845 X1.231 Y-4.315
N8850 X1.157 Y-4.185
N8855 X1.054 Y-4.076
N8860 X0.932 Y-3.989
N8865 X0.796 Y-3.925
N8870 X0.652 Y-3.885
N8875 X0.389 Y-3.886
N8880 X0.134 Y-3.949
N8885 X-0.099 Y-4.072
N8890 X-0.295 Y-4.247
N8895 X-0.445 Y-4.463
N8900 X-0.538 Y-4.709
N8905 X-0.569 Y-4.97
N8910 Y-5.148
N8915 G03 X-0.236 Y-5.564 Z-6.854 I0.446 J0.016
N8920 G01 X-0.131 Y-5.586 Z-6.827
N8925 X-0.026 Y-5.599 Z-6.8
N8930 G03 X0.961 Y-5.184 I0.087 J1.175
N8935 X1.239 Y-4.465 Z-7. I-0.9 J0.76
N8940 G01 Y-4.282
N8945 X1.231 Y-4.132
N8950 X1.156 Y-4.002
N8955 X1.051 Y-3.894
N8960 X0.928 Y-3.809
N8965 X0.791 Y-3.749
N8970 X0.645 Y-3.712
N8975 X0.496 Y-3.694
N8980 X0.218 Y-3.74
N8985 X-0.039 Y-3.854
N8990 X-0.259 Y-4.03
N8995 X-0.428 Y-4.256
N9000 X-0.533 Y-4.518
N9005 X-0.569 Y-4.797
N9010 Y-4.97
N9015 G03 X-0.232 Y-5.387 Z-6.853 I0.446 J0.016
N9020 G01 X-0.13 Y-5.408 Z-6.827
N9025 X-0.025 Y-5.42 Z-6.8
N9030 X0.056 Y-5.423
N9035 X0.057
N9040 G03 X0.962 Y-5.001 J1.183
N9045 X1.239 Y-4.282 Z-7. I-0.906 J0.761
N9050 G01 Y-4.098
N9055 X1.231 Y-3.948
N9060 X1.154 Y-3.82
N9065 X1.048 Y-3.714
N9070 X0.923 Y-3.63
N9075 X0.787 Y-3.568
N9080 X0.641 Y-3.531
N9085 X0.492 Y-3.514
N9090 X0.215 Y-3.559
N9095 X-0.041 Y-3.672
N9100 X-0.26 Y-3.847
N9105 X-0.428 Y-4.072
N9110 X-0.533 Y-4.332
N9115 X-0.569 Y-4.61
N9120 Y-4.797
N9125 G03 X-0.226 Y-5.216 Z-6.852 I0.446 J0.016
N9130 G01 X-0.126 Y-5.235 Z-6.826
N9135 X-0.025 Y-5.245 Z-6.8
N9140 G03 X0.964 Y-4.818 I0.073 J1.189
N9145 X1.239 Y-4.098 Z-7. I-0.916 J0.762
N9150 G01 Y-3.915
N9155 X1.231 Y-3.765
N9160 X1.151 Y-3.638
N9165 X1.045 Y-3.533
N9170 X0.92 Y-3.449
N9175 X0.783 Y-3.387
N9180 X0.638 Y-3.35
N9185 X0.489 Y-3.333
N9190 X0.213 Y-3.378
N9195 X-0.043 Y-3.491
N9200 X-0.261 Y-3.665
N9205 X-0.429 Y-3.889
N9210 X-0.533 Y-4.148
N9215 X-0.569 Y-4.425
N9220 Y-4.61
N9225 G03 X-0.228 Y-5.028 Z-6.852 I0.446 J0.016
N9230 G01 X-0.127 Y-5.048 Z-6.826
N9235 X-0.025 Y-5.059 Z-6.8
N9240 G03 X0.963 Y-4.635 I0.076 J1.186
N9245 X1.239 Y-3.915 Z-7. I-0.912 J0.761
N9250 G01 Y-3.731
N9255 X1.231 Y-3.581
N9260 X1.15 Y-3.455
N9265 X1.043 Y-3.351
N9270 X0.918 Y-3.267
N9275 X0.781 Y-3.206
N9280 X0.636 Y-3.168
N9285 X0.487 Y-3.152
N9290 X0.211 Y-3.196
N9295 X-0.044 Y-3.309
N9300 X-0.262 Y-3.483
N9305 X-0.429 Y-3.706
N9310 X-0.534 Y-3.965
N9315 X-0.569 Y-4.241
N9320 Y-4.425
N9325 G03 X-0.229 Y-4.843 Z-6.853 I0.446 J0.016
N9330 G01 X-0.128 Y-4.863 Z-6.826
N9335 X-0.025 Y-4.874 Z-6.8
N9340 G03 X0.963 Y-4.451 I0.078 J1.184
N9345 X1.239 Y-3.731 Z-7. I-0.911 J0.761
N9350 G01 Y-3.548
N9355 X1.235 Y-3.473
N9360 X1.178 Y-3.334
N9365 X1.084 Y-3.217
N9370 X0.968 Y-3.123
N9375 X0.837 Y-3.05
N9380 X0.694 Y-3.003
N9385 X0.546 Y-2.977
N9390 X0.259 Y-3.009
N9395 X-0.01 Y-3.116
N9400 X-0.241 Y-3.29
N9405 X-0.419 Y-3.518
N9410 X-0.531 Y-3.785
N9415 X-0.569 Y-4.072
N9420 Y-4.241
N9425 G03 X-0.229 Y-4.659 Z-6.853 I0.446 J0.016
N9430 G01 X-0.128 Y-4.679 Z-6.826
N9435 X-0.025 Y-4.69 Z-6.8
N9440 G03 X0.963 Y-4.268 I0.078 J1.184
N9445 X1.239 Y-3.548 Z-7. I-0.91 J0.761
N9450 G01 Y-3.395
N9455 X1.231 Y-3.245
N9460 X1.155 Y-3.115
N9465 X1.052 Y-3.007
N9470 X0.93 Y-2.919
N9475 X0.794 Y-2.856
N9480 X0.65 Y-2.815
N9485 X0.387 Y-2.817
N9490 X0.132 Y-2.88
N9495 X-0.1 Y-3.003
N9500 X-0.296 Y-3.178
N9505 X-0.445 Y-3.394
N9510 X-0.538 Y-3.64
N9515 X-0.569 Y-3.901
N9520 Y-4.072
N9525 G03 X-0.239 Y-4.487 Z-6.855 I0.446 J0.016
N9530 G01 X-0.133 Y-4.51 Z-6.828
N9535 X-0.026 Y-4.524 Z-6.8
N9540 G03 X0.96 Y-4.113 I0.092 J1.17
N9545 X1.239 Y-3.395 Z-7. I-0.895 J0.759
N9550 G01 Y-3.211
N9555 X1.231 Y-3.061
N9560 X1.155 Y-2.932
N9565 X1.05 Y-2.825
N9570 X0.927 Y-2.739
N9575 X0.79 Y-2.679
N9580 X0.644 Y-2.642
N9585 X0.495 Y-2.625
N9590 X0.217 Y-2.671
N9595 X-0.04 Y-2.785
N9600 X-0.26 Y-2.961
N9605 X-0.428 Y-3.187
N9610 X-0.533 Y-3.448
N9615 X-0.569 Y-3.727
N9620 Y-3.901
N9625 G03 X-0.232 Y-4.318 Z-6.853 I0.446 J0.016
N9630 G01 X-0.129 Y-4.339 Z-6.827
N9635 X-0.025 Y-4.351 Z-6.8
N9640 G03 X0.962 Y-3.931 I0.081 J1.181
N9645 X1.239 Y-3.211 Z-7. I-0.907 J0.761
N9650 G01 Y-3.028
N9655 X1.231 Y-2.878
N9660 X1.153 Y-2.75
N9665 X1.047 Y-2.644
N9670 X0.922 Y-2.56
N9675 X0.786 Y-2.498
N9680 X0.641 Y-2.461
N9685 X0.491 Y-2.445
N9690 X0.215 Y-2.489
N9695 X-0.042 Y-2.603
N9700 X-0.261 Y-2.778
N9705 X-0.428 Y-3.002
N9710 X-0.533 Y-3.262
N9715 X-0.569 Y-3.54
N9720 Y-3.727
N9725 G03 X-0.226 Y-4.146 Z-6.852 I0.446 J0.016
N9730 G01 X-0.126 Y-4.165 Z-6.826
N9735 X-0.025 Y-4.176 Z-6.8
N9740 G03 X0.964 Y-3.748 I0.073 J1.189
N9745 X1.239 Y-3.028 Z-7. I-0.916 J0.762
N9750 G01 Y-2.844
N9755 X1.231 Y-2.694
N9760 X1.151 Y-2.568
N9765 X1.044 Y-2.462
N9770 X0.919 Y-2.379
N9775 X0.783 Y-2.317
N9780 X0.637 Y-2.28
N9785 X0.488 Y-2.264
N9790 X0.212 Y-2.308
N9795 X-0.043 Y-2.421
N9800 X-0.262 Y-2.595
N9805 X-0.429 Y-2.819
N9810 X-0.533 Y-3.078
N9815 X-0.569 Y-3.355
N9820 Y-3.54
N9825 G03 X-0.228 Y-3.958 Z-6.852 I0.446 J0.016
N9830 G01 X-0.127 Y-3.978 Z-6.826
N9835 X-0.025 Y-3.989 Z-6.8
N9840 G03 X0.963 Y-3.564 I0.076 J1.186
N9845 X1.239 Y-2.844 Z-7. I-0.913 J0.762
N9850 G01 Y-2.661
N9855 X1.235 Y-2.586
N9860 X1.179 Y-2.446
N9865 X1.086 Y-2.329
N9870 X0.969 Y-2.235
N9875 X0.838 Y-2.162
N9880 X0.696 Y-2.115
N9885 X0.548 Y-2.089
N9890 X0.26 Y-2.121
N9895 X-0.009 Y-2.228
N9900 X-0.241 Y-2.402
N9905 X-0.419 Y-2.631
N9910 X-0.531 Y-2.898
N9915 X-0.569 Y-3.185
N9920 Y-3.355
N9925 G03 X-0.229 Y-3.773 Z-6.853 I0.446 J0.016
N9930 G01 X-0.128 Y-3.793 Z-6.826
N9935 X-0.025 Y-3.804 Z-6.8
N9940 G03 X0.963 Y-3.381 I0.077 J1.185
N9945 X1.239 Y-2.661 Z-7. I-0.911 J0.761
N9950 G01 Y-2.508
N9955 X1.231 Y-2.358
N9960 X1.156 Y-2.228
N9965 X1.053 Y-2.12
N9970 X0.931 Y-2.032
N9975 X0.795 Y-1.968
N9980 X0.651 Y-1.928
N9985 X0.388 Y-1.929
N9990 X0.133 Y-1.992
N9995 X-0.099 Y-2.115
N10000 X-0.296 Y-2.29
N10005 X-0.445 Y-2.507
N10010 X-0.538 Y-2.753
N10015 X-0.569 Y-3.014
N10020 Y-3.185
N10025 G03 X-0.239 Y-3.6 Z-6.855 I0.446 J0.016
N10030 G01 X-0.133 Y-3.624 Z-6.828
N10035 X-0.026 Y-3.637 Z-6.8
N10040 G03 X0.96 Y-3.227 I0.092 J1.17
N10045 X1.239 Y-2.508 Z-7. I-0.895 J0.759
N10050 G01 Y-2.331
N10055 X1.231 Y-2.181
N10060 X1.158 Y-2.05
N10065 X1.054 Y-1.941
N10070 X0.932 Y-1.855
N10075 X0.795 Y-1.794
N10080 X0.65 Y-1.755
N10085 X0.501 Y-1.737
N10090 X0.222 Y-1.782
N10095 X-0.036 Y-1.896
N10100 X-0.258 Y-2.072
N10105 X-0.427 Y-2.298
N10110 X-0.533 Y-2.56
N10115 X-0.569 Y-2.84
N10120 Y-3.014
N10125 G03 X-0.236 Y-3.43 Z-6.854 I0.446 J0.016
N10130 G01 X-0.131 Y-3.452 Z-6.827
N10135 X-0.026 Y-3.465 Z-6.8
N10140 G03 X0.961 Y-3.05 I0.087 J1.175
N10145 X1.239 Y-2.331 Z-7. I-0.9 J0.76
N10150 G01 Y-2.147
N10155 X1.231 Y-1.998
N10160 X1.156 Y-1.868
N10165 X1.051 Y-1.761
N10170 X0.927 Y-1.676
N10175 X0.791 Y-1.613
N10180 X0.646 Y-1.575
N10185 X0.497 Y-1.558
N10190 X0.219 Y-1.601
N10195 X-0.039 Y-1.714
N10200 X-0.259 Y-1.889
N10205 X-0.427 Y-2.114
N10210 X-0.533 Y-2.375
N10215 X-0.569 Y-2.653
N10220 Y-2.84
N10225 G03 X-0.23 Y-3.258 Z-6.853 I0.446 J0.016
N10230 G01 X-0.128 Y-3.278 Z-6.826
N10235 X-0.025 Y-3.289 Z-6.8
N10240 G03 X0.963 Y-2.867 I0.079 J1.183
N10245 X1.239 Y-2.147 Z-7. I-0.909 J0.761
N10250 G01 Y-1.964
N10255 X1.231 Y-1.814
N10260 X1.153 Y-1.686
N10265 X1.047 Y-1.58
N10270 X0.923 Y-1.495
N10275 X0.787 Y-1.432
N10280 X0.642 Y-1.394
N10285 X0.493 Y-1.377
N10290 X0.216 Y-1.421
N10295 X-0.04 Y-1.533
N10300 X-0.26 Y-1.707
N10305 X-0.428 Y-1.932
N10310 X-0.533 Y-2.191
N10315 X-0.569 Y-2.469
N10320 Y-2.653
N10325 G03 X-0.232 Y-3.071 Z-6.853 I0.446 J0.016
N10330 G01 X-0.129 Y-3.092 Z-6.827
N10335 X-0.025 Y-3.103 Z-6.8
N10340 G03 X0.962 Y-2.683 I0.081 J1.181
N10345 X1.239 Y-1.964 Z-7. I-0.907 J0.761
N10350 G01 Y-1.78
N10355 X1.231 Y-1.631
N10360 X1.151 Y-1.504
N10365 X1.045 Y-1.398
N10370 X0.921 Y-1.314
N10375 X0.784 Y-1.251
N10380 X0.639 Y-1.213
N10385 X0.49 Y-1.196
N10390 X0.214 Y-1.24
N10395 X-0.042 Y-1.352
N10400 X-0.261 Y-1.526
N10405 X-0.428 Y-1.75
N10410 X-0.533 Y-2.009
N10415 X-0.569 Y-2.286
N10420 Y-2.469
N10425 G03 X-0.232 Y-2.886 Z-6.853 I0.446 J0.016
N10430 G01 X-0.13 Y-2.907 Z-6.827
N10435 X-0.025 Y-2.919 Z-6.8
N10440 X0.056 Y-2.922
N10445 X0.057
N10450 G03 X0.962 Y-2.5 J1.183
N10455 X1.239 Y-1.78 Z-7. I-0.906 J0.761
N10460 G01 Y-1.597
N10465 X1.231 Y-1.447
N10470 X1.15 Y-1.321
N10475 X1.043 Y-1.216
N10480 X0.919 Y-1.132
N10485 X0.782 Y-1.07
N10490 X0.637 Y-1.032
N10495 X0.488 Y-1.015
N10500 X0.212 Y-1.059
N10505 X-0.043 Y-1.171
N10510 X-0.261 Y-1.345
N10515 X-0.429 Y-1.568
N10520 X-0.533 Y-1.826
N10525 X-0.569 Y-2.103
N10530 Y-2.286
N10535 G03 X-0.232 Y-2.703 Z-6.853 I0.446 J0.016
N10540 G01 X-0.129 Y-2.724 Z-6.827
N10545 X-0.025 Y-2.736 Z-6.8
N10550 X0.056 Y-2.739
N10555 G03 X0.962 Y-2.316 J1.183
N10560 X1.239 Y-1.597 Z-7. I-0.906 J0.761
N10565 G01 Y-1.413
N10570 X1.235 Y-1.338
N10575 X1.179 Y-1.199
N10580 X1.085 Y-1.082
N10585 X0.969 Y-0.987
N10590 X0.838 Y-0.914
N10595 X0.696 Y-0.867
N10600 X0.548 Y-0.84
N10605 X0.26 Y-0.872
N10610 X-0.009 Y-0.979
N10615 X-0.241 Y-1.152
N10620 X-0.419 Y-1.38
N10625 X-0.531 Y-1.647
N10630 X-0.569 Y-1.934
N10635 Y-2.103
N10640 G03 X-0.232 Y-2.52 Z-6.853 I0.446 J0.016
N10645 G01 X-0.129 Y-2.541 Z-6.827
N10650 X-0.025 Y-2.553 Z-6.8
N10655 G03 X0.962 Y-2.133 I0.081 J1.181
N10660 X1.239 Y-1.413 Z-7. I-0.907 J0.761
N10665 G01 Y-1.275
N10670 X1.231 Y-1.126
N10675 X1.162 Y-0.992
N10680 X1.061 Y-0.881
N10685 X0.941 Y-0.792
N10690 X0.807 Y-0.725
N10695 X0.663 Y-0.682
N10700 X0.399 Y-0.679
N10705 X0.142 Y-0.74
N10710 X-0.093 Y-0.861
N10715 X-0.292 Y-1.034
N10720 X-0.443 Y-1.251
N10725 X-0.537 Y-1.498
N10730 X-0.569 Y-1.76
N10735 Y-1.934
N10740 G03 X-0.25 Y-2.347 Z-6.858 I0.446 J0.016
N10745 G01 X-0.139 Y-2.374 Z-6.829
N10750 X-0.026 Y-2.39 Z-6.8
N10755 G03 X0.958 Y-1.992 I0.106 J1.155
N10760 X1.239 Y-1.275 Z-7. I-0.878 J0.758
N10765 G01 Y-1.092
N10770 X1.231 Y-0.942
N10775 X1.16 Y-0.81
N10780 X1.059 Y-0.699
N10785 X0.937 Y-0.611
N10790 X0.801 Y-0.549
N10795 X0.656 Y-0.509
N10800 X0.507 Y-0.49
N10805 X0.227 Y-0.532
N10810 X-0.033 Y-0.645
N10815 X-0.255 Y-0.82
N10820 X-0.426 Y-1.046
N10825 X-0.533 Y-1.309
N10830 X-0.569 Y-1.589
N10835 Y-1.76
N10840 G03 X-0.244 Y-2.174 Z-6.857 I0.446 J0.016
N10845 G01 X-0.136 Y-2.199 Z-6.828
N10850 X-0.026 Y-2.214 Z-6.8
N10855 G03 X0.959 Y-1.81 I0.099 J1.162
N10860 X1.239 Y-1.092 Z-7. I-0.886 J0.758
N10865 G01 Y-0.915
N10870 X1.231 Y-0.765
N10875 X1.16 Y-0.633
N10880 X1.058 Y-0.523
N10885 X0.936 Y-0.436
N10890 X0.801 Y-0.371
N10895 X0.656 Y-0.331
N10900 X0.508 Y-0.311
N10905 X0.228 Y-0.352
N10910 X-0.032 Y-0.464
N10915 X-0.255 Y-0.638
N10920 X-0.426 Y-0.864
N10925 X-0.533 Y-1.125
N10930 X-0.569 Y-1.406
N10935 Y-1.589
N10940 G03 X-0.241 Y-2.004 Z-6.856 I0.446 J0.016
N10945 G01 X-0.134 Y-2.028 Z-6.828
N10950 X-0.026 Y-2.042 Z-6.8
N10955 G03 X0.96 Y-1.633 I0.094 J1.168
N10960 X1.239 Y-0.915 Z-7. I-0.892 J0.759
N10965 G01 Y-0.732
N10970 X1.231 Y-0.582
N10975 X1.157 Y-0.451
N10980 X1.054 Y-0.342
N10985 X0.932 Y-0.256
N10990 X0.796 Y-0.191
N10995 X0.652 Y-0.151
N11000 X0.503 Y-0.132
N11005 X0.224 Y-0.173
N11010 X-0.035 Y-0.284
N11015 X-0.256 Y-0.458
N11020 X-0.426 Y-0.683
N11025 X-0.533 Y-0.944
N11030 X-0.569 Y-1.223
N11035 Y-1.406
N11040 G03 X-0.241 Y-1.821 Z-6.856 I0.446 J0.016
N11045 G01 X-0.134 Y-1.845 Z-6.828
N11050 X-0.026 Y-1.859 Z-6.8
N11055 G03 X0.96 Y-1.45 I0.094 J1.168
N11060 X1.239 Y-0.732 Z-7. I-0.892 J0.759
N11065 G01 Y-0.548
N11070 X1.231 Y-0.398
N11075 X1.155 Y-0.269
N11080 X1.051 Y-0.161
N11085 X0.928 Y-0.075
N11090 X0.793 Y-0.01
N11095 X0.648 Y0.029
N11100 X0.499 Y0.048
N11105 X0.222 Y0.006
N11110 X-0.036 Y-0.105
N11115 X-0.257 Y-0.278
N11120 X-0.427 Y-0.502
N11125 X-0.533 Y-0.762
N11130 X-0.569 Y-1.041
N11135 Y-1.223
N11140 G03 X-0.24 Y-1.638 Z-6.856 I0.446 J0.016
N11145 G01 X-0.134 Y-1.662 Z-6.828
N11150 X-0.026 Y-1.675 Z-6.8
N11155 G03 X0.96 Y-1.266 I0.093 J1.168
N11160 X1.239 Y-0.548 Z-7. I-0.893 J0.759
N11165 G01 Y-0.365
N11170 X1.231 Y-0.215
N11175 X1.154 Y-0.086
N11180 X1.049 Y0.021
N11185 X0.926 Y0.107
N11190 X0.79 Y0.171
N11195 X0.645 Y0.21
N11200 X0.496 Y0.228
N11205 X0.219 Y0.186
N11210 X-0.038 Y0.075
N11215 X-0.258 Y-0.098
N11220 X-0.427 Y-0.322
N11225 X-0.533 Y-0.581
N11230 X-0.569 Y-0.859
N11235 Y-1.041
N11240 G03 X-0.239 Y-1.456 Z-6.855 I0.446 J0.016
N11245 G01 X-0.133 Y-1.48 Z-6.828
N11250 X-0.026 Y-1.493 Z-6.8
N11255 G03 X0.96 Y-1.083 I0.092 J1.17
N11260 X1.239 Y-0.365 Z-7. I-0.894 J0.759
N11265 G01 Y-0.181
N11270 X1.231 Y-0.031
N11275 X1.153 Y0.097
N11280 X1.047 Y0.203
N11285 X0.924 Y0.288
N11290 X0.788 Y0.352
N11295 X0.643 Y0.391
N11300 X0.494 Y0.409
N11305 X0.217 Y0.367
N11310 X-0.039 Y0.255
N11315 X-0.259 Y0.082
N11320 X-0.428 Y-0.141
N11325 X-0.533 Y-0.4
N11330 X-0.569 Y-0.678
N11335 Y-0.859
N11340 G03 X-0.238 Y-1.275 Z-6.855 I0.446 J0.016
N11345 G01 X-0.133 Y-1.298 Z-6.828
N11350 X-0.026 Y-1.311 Z-6.8
N11355 G03 X0.961 Y-0.9 I0.09 J1.171
N11360 X1.239 Y-0.181 Z-7. I-0.896 J0.76
N11365 G01 Y0.002
N11370 X1.231 Y0.152
N11375 X1.152 Y0.28
N11380 X1.046 Y0.386
N11385 X0.922 Y0.47
N11390 X0.786 Y0.533
N11395 X0.641 Y0.572
N11400 X0.492 Y0.59
N11405 X0.216 Y0.547
N11410 X-0.041 Y0.436
N11415 X-0.26 Y0.263
N11420 X-0.428 Y0.039
N11425 X-0.533 Y-0.219
N11430 X-0.569 Y-0.497
N11435 Y-0.678
N11440 G03 X-0.237 Y-1.094 Z-6.855 I0.446 J0.016
N11445 G01 X-0.132 Y-1.116 Z-6.827
N11450 X-0.026 Y-1.129 Z-6.8
N11455 G03 X0.961 Y-0.716 I0.089 J1.173
N11460 X1.239 Y0.002 Z-7. I-0.898 J0.76
N11465 G01 Y0.186
N11470 X1.231 Y0.336
N11475 X1.151 Y0.462
N11480 X1.044 Y0.568
N11485 X0.92 Y0.652
N11490 X0.784 Y0.715
N11495 X0.639 Y0.753
N11500 X0.49 Y0.771
N11505 X0.214 Y0.728
N11510 X-0.042 Y0.616
N11515 X-0.261 Y0.443
N11520 X-0.428 Y0.22
N11525 X-0.533 Y-0.038
N11530 X-0.569 Y-0.315
N11535 Y-0.497
N11540 G03 X-0.236 Y-0.913 Z-6.854 I0.446 J0.016
N11545 G01 X-0.131 Y-0.935 Z-6.827
N11550 X-0.026 Y-0.948 Z-6.8
N11555 G03 X0.961 Y-0.533 I0.087 J1.175
N11560 X1.239 Y0.186 Z-7. I-0.9 J0.76
N11565 G01 Y0.369
N11570 X1.231 Y0.519
N11575 X1.15 Y0.646
N11580 X1.043 Y0.751
N11585 X0.919 Y0.834
N11590 X0.782 Y0.897
N11595 X0.637 Y0.935
N11600 X0.488 Y0.952
N11605 X0.213 Y0.909
N11610 X-0.043 Y0.797
N11615 X-0.261 Y0.624
N11620 X-0.428 Y0.401
N11625 X-0.533 Y0.143
N11630 X-0.569 Y-0.134
N11635 Y-0.315
N11640 G03 X-0.235 Y-0.732 Z-6.854 I0.446 J0.016
N11645 G01 X-0.131 Y-0.754 Z-6.827
N11650 X-0.026 Y-0.766 Z-6.8
N11655 G03 X0.962 Y-0.35 I0.085 J1.177
N11660 X1.239 Y0.369 Z-7. I-0.902 J0.76
N11665 G01 Y0.553
N11670 X1.235 Y0.628
N11675 X1.179 Y0.767
N11680 X1.085 Y0.884
N11685 X0.969 Y0.979
N11690 X0.838 Y1.053
N11695 X0.696 Y1.1
N11700 X0.548 Y1.127
N11705 X0.261 Y1.095
N11710 X-0.008 Y0.989
N11715 X-0.24 Y0.816
N11720 X-0.419 Y0.588
N11725 X-0.531 Y0.321
N11730 X-0.569 Y0.034
N11735 Y-0.134
N11740 G03 X-0.233 Y-0.551 Z-6.854 I0.446 J0.016
N11745 G01 X-0.13 Y-0.572 Z-6.827
N11750 X-0.025 Y-0.584 Z-6.8
N11755 G03 X0.962 Y-0.166 I0.083 J1.178
N11760 X1.239 Y0.553 Z-7. I-0.904 J0.76
N11765 G01 Y0.719
N11770 X1.231 Y0.869
N11775 X1.152 Y0.996
N11780 X1.047 Y1.103
N11785 X0.924 Y1.189
N11790 X0.787 Y1.251
N11795 X0.643 Y1.291
N11800 X0.381 Y1.287
N11805 X0.127 Y1.221
N11810 X-0.104 Y1.097
N11815 X-0.298 Y0.922
N11820 X-0.446 Y0.706
N11825 X-0.538 Y0.461
N11830 X-0.569 Y0.201
N11835 Y0.034
N11840 G03 X-0.235 Y-0.382 Z-6.854 I0.446 J0.016
N11845 G01 X-0.131 Y-0.404 Z-6.827
N11850 X-0.026 Y-0.416 Z-6.8
N11855 G03 X0.962 Y0. I0.085 J1.177
N11860 X1.239 Y0.719 Z-7. I-0.902 J0.76
N11865 G01 Y0.881
N11870 X1.231 Y1.031
N11875 X1.159 Y1.163
N11880 X1.057 Y1.272
N11885 X0.935 Y1.36
N11890 X0.798 Y1.421
N11895 X0.654 Y1.461
N11900 X0.505 Y1.479
N11905 X0.225 Y1.435
N11910 X-0.034 Y1.322
N11915 X-0.256 Y1.146
N11920 X-0.426 Y0.92
N11925 X-0.533 Y0.658
N11930 X-0.569 Y0.377
N11935 Y0.201
N11940 G03 X-0.237 Y-0.215 Z-6.855 I0.446 J0.016
N11945 G01 X-0.132 Y-0.238 Z-6.827
N11950 X-0.026 Y-0.251 Z-6.8
N11955 G03 X0.961 Y0.162 I0.088 J1.173
N11960 X1.239 Y0.881 Z-7. I-0.898 J0.76
N11965 G01 Y1.086
N11970 X1.231 Y1.236
N11975 X1.15 Y1.362
N11980 X1.041 Y1.465
N11985 X0.916 Y1.548
N11990 X0.779 Y1.608
N11995 X0.633 Y1.645
N12000 X0.373 Y1.639
N12005 X0.121 Y1.572
N12010 X-0.108 Y1.448
N12015 X-0.301 Y1.273
N12020 X-0.447 Y1.057
N12025 X-0.538 Y0.813
N12030 X-0.569 Y0.555
N12035 Y0.377
N12040 G03 X-0.22 Y-0.043 Z-6.85 I0.446 J0.016
N12045 G01 X-0.123 Y-0.06 Z-6.825
N12050 X-0.025 Y-0.07 Z-6.8
N12055 G03 X0.965 Y0.365 I0.065 J1.198
N12060 X1.239 Y1.086 Z-7. I-0.926 J0.763
N12065 G01 Y1.248
N12070 X1.231 Y1.398
N12075 X1.155 Y1.527
N12080 X1.05 Y1.635
N12085 X0.927 Y1.72
N12090 X0.789 Y1.779
N12095 X0.644 Y1.817
N12100 X0.495 Y1.833
N12105 X0.217 Y1.787
N12110 X-0.04 Y1.673
N12115 X-0.26 Y1.497
N12120 X-0.428 Y1.271
N12125 X-0.533 Y1.01
N12130 X-0.569 Y0.731
N12135 Y0.555
N12140 G03 X-0.229 Y0.137 Z-6.853 I0.446 J0.016
N12145 G01 X-0.128 Y0.117 Z-6.826
N12150 X-0.025 Y0.106 Z-6.8
N12155 G03 X0.963 Y0.528 I0.078 J1.184
N12160 X1.239 Y1.248 Z-7. I-0.91 J0.761
N12165 G01 Y1.453
N12170 X1.235 Y1.528
N12175 X1.174 Y1.665
N12180 X1.077 Y1.78
N12185 X0.959 Y1.872
N12190 X0.826 Y1.942
N12195 X0.683 Y1.986
N12200 X0.535 Y2.01
N12205 X0.249 Y1.972
N12210 X-0.017 Y1.862
N12215 X-0.246 Y1.687
N12220 X-0.421 Y1.459
N12225 X-0.532 Y1.193
N12230 X-0.569 Y0.907
N12235 Y0.731
N12240 G03 X-0.213 Y0.309 Z-6.848 I0.446 J0.016
N12245 G01 X-0.119 Y0.294 Z-6.824
N12250 X-0.025 Y0.286 Z-6.8
N12255 G03 X0.968 Y0.731 I0.054 J1.209
N12260 X1.239 Y1.453 Z-7. I-0.938 J0.764
N12265 G01 X1.238 Y1.59
N12270 X1.23 Y1.74
N12275 X1.156 Y1.871
N12280 X1.053 Y1.979
N12285 X0.931 Y2.066
N12290 X0.795 Y2.13
N12295 X0.65 Y2.17
N12300 X0.388 Y2.169
N12305 X0.133 Y2.105
N12310 X-0.099 Y1.983
N12315 X-0.296 Y1.808
N12320 X-0.445 Y1.591
N12325 X-0.538 Y1.346
N12330 X-0.569 Y1.085
N12335 Y0.907
N12340 G03 X-0.238 Y0.491 Z-6.855 I0.447 J0.016
N12345 G01 X-0.133 Y0.468 Z-6.827
N12350 X-0.026 Y0.455 Z-6.8
N12355 G03 X0.964 Y0.87 I0.091 J1.171
N12360 X1.238 Y1.59 Z-7. I-0.899 J0.755
N12365 G01 X1.237 Y1.774
N12370 X1.229 Y1.924
N12375 X1.154 Y2.053
N12380 X1.049 Y2.161
N12385 X0.926 Y2.247
N12390 X0.789 Y2.307
N12395 X0.643 Y2.344
N12400 X0.494 Y2.361
N12405 X0.217 Y2.315
N12410 X-0.04 Y2.2
N12415 X-0.26 Y2.024
N12420 X-0.428 Y1.798
N12425 X-0.533 Y1.537
N12430 X-0.569 Y1.258
N12435 Y1.085
N12440 G03 X-0.234 Y0.668 Z-6.854 I0.447 J0.016
N12445 G01 X-0.131 Y0.646 Z-6.827
N12450 X-0.026 Y0.634 Z-6.8
N12455 G03 X0.964 Y1.053 I0.085 J1.175
N12460 X1.237 Y1.774 Z-7. I-0.904 J0.755
N12465 G01 X1.236 Y1.957
N12470 X1.228 Y2.107
N12475 X1.151 Y2.236
N12480 X1.045 Y2.342
N12485 X0.92 Y2.425
N12490 X0.784 Y2.487
N12495 X0.638 Y2.524
N12500 X0.489 Y2.541
N12505 X0.213 Y2.496
N12510 X-0.042 Y2.382
N12515 X-0.261 Y2.208
N12520 X-0.428 Y1.983
N12525 X-0.533 Y1.724
N12530 X-0.569 Y1.447
N12535 Y1.258
N12540 G03 X-0.228 Y0.84 Z-6.852 I0.446 J0.016
N12545 G01 X-0.127 Y0.82 Z-6.826
N12550 X-0.025 Y0.809 Z-6.8
N12555 G03 X0.964 Y1.236 I0.076 J1.183
N12560 X1.236 Y1.957 Z-7. I-0.913 J0.756
N12565 G01 X1.235 Y2.141
N12570 X1.227 Y2.291
N12575 X1.147 Y2.418
N12580 X1.04 Y2.523
N12585 X0.916 Y2.606
N12590 X0.779 Y2.668
N12595 X0.634 Y2.705
N12600 X0.484 Y2.721
N12605 X0.21 Y2.677
N12610 X-0.044 Y2.564
N12615 X-0.261 Y2.391
N12620 X-0.428 Y2.169
N12625 X-0.532 Y1.911
N12630 X-0.569 Y1.636
N12635 Y1.447
N12640 G03 X-0.232 Y1.029 Z-6.853 I0.446 J0.015
N12645 G01 X-0.13 Y1.008 Z-6.827
N12650 X-0.026 Y0.996 Z-6.8
N12655 X0.056 Y0.993
N12660 G03 X0.964 Y1.419 J1.179
N12665 X1.235 Y2.141 Z-7. I-0.908 J0.753
N12670 G01 X1.234 Y2.324
N12675 X1.225 Y2.474
N12680 X1.144 Y2.6
N12685 X1.037 Y2.705
N12690 X0.912 Y2.788
N12695 X0.775 Y2.85
N12700 X0.63 Y2.886
N12705 X0.481 Y2.902
N12710 X0.207 Y2.858
N12715 X-0.045 Y2.746
N12720 X-0.262 Y2.573
N12725 X-0.428 Y2.352
N12730 X-0.532 Y2.096
N12735 X-0.568 Y1.821
N12740 X-0.569 Y1.636
N12745 G03 X-0.234 Y1.218 Z-6.854 I0.446 J0.014
N12750 G01 X-0.131 Y1.196 Z-6.827
N12755 X-0.027 Y1.184 Z-6.8
N12760 G03 X0.962 Y1.603 I0.086 J1.172
N12765 X1.234 Y2.324 Z-7. I-0.903 J0.752
N12770 G01 X1.232 Y2.508
N12775 X1.224 Y2.658
N12780 X1.142 Y2.783
N12785 X1.034 Y2.887
N12790 X0.909 Y2.97
N12795 X0.772 Y3.031
N12800 X0.626 Y3.068
N12805 X0.477 Y3.084
N12810 X0.205 Y3.039
N12815 X-0.047 Y2.927
N12820 X-0.263 Y2.755
N12825 X-0.428 Y2.534
N12830 X-0.532 Y2.279
N12835 X-0.568 Y2.006
N12840 Y1.821
N12845 G03 X-0.235 Y1.404 Z-6.854 I0.446 J0.014
N12850 G01 X-0.131 Y1.382 Z-6.827
N12855 X-0.026 Y1.369 Z-6.8
N12860 G03 X0.96 Y1.787 I0.086 J1.169
N12865 X1.232 Y2.508 Z-7. I-0.9 J0.752
N12870 G01 X1.231 Y2.691
N12875 X1.221 Y2.841
N12880 X1.139 Y2.966
N12885 X1.03 Y3.07
N12890 X0.905 Y3.152
N12895 X0.768 Y3.213
N12900 X0.622 Y3.25
N12905 X0.473 Y3.265
N12910 X0.204 Y3.221
N12915 X-0.045 Y3.11
N12920 X-0.259 Y2.941
N12925 X-0.424 Y2.723
N12930 X-0.528 Y2.471
N12935 X-0.566 Y2.201
N12940 X-0.568 Y2.006
N12945 G03 X-0.236 Y1.589 Z-6.855 I0.446 J0.014
N12950 G01 X-0.132 Y1.566 Z-6.827
N12955 X-0.025 Y1.553 Z-6.8
N12960 G03 X0.96 Y1.97 I0.088 J1.165
N12965 X1.231 Y2.691 Z-7. I-0.897 J0.748
N12970 G01 X1.228 Y2.875
N12975 X1.218 Y3.024
N12980 X1.135 Y3.149
N12985 X1.027 Y3.253
N12990 X0.901 Y3.335
N12995 X0.764 Y3.395
N13000 X0.618 Y3.432
N13005 X0.365 Y3.427
N13010 X0.119 Y3.363
N13015 X-0.104 Y3.243
N13020 X-0.294 Y3.075
N13025 X-0.438 Y2.866
N13030 X-0.53 Y2.63
N13035 X-0.564 Y2.379
N13040 X-0.566 Y2.201
N13045 G03 X-0.241 Y1.782 Z-6.855 I0.445 J0.01
N13050 G01 X-0.135 Y1.757 Z-6.828
N13055 X-0.028 Y1.743 Z-6.8
N13060 G03 X0.959 Y2.153 I0.099 J1.153
N13065 X1.228 Y2.875 Z-7. I-0.888 J0.743
N13070 G01 X1.225 Y3.058
N13075 X1.22 Y3.133
N13080 X1.162 Y3.271
N13085 X1.067 Y3.387
N13090 X0.949 Y3.481
N13095 X0.815 Y3.547
N13100 X0.672 Y3.593
N13105 X0.524 Y3.615
N13110 X0.246 Y3.582
N13115 X-0.013 Y3.478
N13120 X-0.237 Y3.311
N13125 X-0.41 Y3.092
N13130 X-0.52 Y2.835
N13135 X-0.561 Y2.558
N13140 X-0.564 Y2.379
N13145 G03 X-0.234 Y1.958 Z-6.854 I0.444 J0.009
N13150 G01 X-0.13 Y1.936 Z-6.827
N13155 X-0.025 Y1.923 Z-6.8
N13160 G03 X0.956 Y2.337 I0.09 J1.157
N13165 X1.225 Y3.058 Z-7. I-0.892 J0.743
N13170 G01 X1.223 Y3.211
N13175 X1.212 Y3.361
N13180 X1.136 Y3.49
N13185 X1.03 Y3.596
N13190 X0.906 Y3.681
N13195 X0.769 Y3.742
N13200 X0.624 Y3.78
N13205 X0.37 Y3.775
N13210 X0.124 Y3.71
N13215 X-0.099 Y3.59
N13220 X-0.289 Y3.42
N13225 X-0.433 Y3.211
N13230 X-0.525 Y2.974
N13235 X-0.558 Y2.723
N13240 X-0.561 Y2.558
N13245 G03 X-0.247 Y2.144 Z-6.858 I0.443 J0.009
N13250 G01 X-0.136 Y2.116 Z-6.829
N13255 X-0.023 Y2.099 Z-6.8
N13260 G03 X0.949 Y2.492 I0.108 J1.133
N13265 X1.223 Y3.211 Z-7. I-0.865 J0.74
N13270 G01 X1.219 Y3.395
N13275 X1.2 Y3.543
N13280 X1.123 Y3.673
N13285 X1.017 Y3.779
N13290 X0.893 Y3.862
N13295 X0.754 Y3.919
N13300 X0.608 Y3.952
N13305 X0.458 Y3.966
N13310 X0.194 Y3.916
N13315 X-0.049 Y3.803
N13320 X-0.257 Y3.633
N13325 X-0.417 Y3.417
N13330 X-0.518 Y3.169
N13335 X-0.556 Y2.903
N13340 X-0.558 Y2.723
N13345 G03 X-0.234 Y2.306 Z-6.856 I0.442 J0.009
N13350 G01 X-0.127 Y2.282 Z-6.828
N13355 X-0.019 Y2.268 Z-6.8
N13360 G03 X0.95 Y2.674 I0.09 J1.145
N13365 X1.219 Y3.395 Z-7. I-0.879 J0.74
N13370 G01 X1.201 Y3.622
N13375 X1.191 Y3.696
N13380 X1.123 Y3.83
N13385 X1.021 Y3.94
N13390 X0.898 Y4.026
N13395 X0.763 Y4.09
N13400 X0.617 Y4.127
N13405 X0.468 Y4.143
N13410 X0.204 Y4.098
N13415 X-0.041 Y3.989
N13420 X-0.251 Y3.822
N13425 X-0.412 Y3.607
N13430 X-0.515 Y3.36
N13435 X-0.553 Y3.094
N13440 G03 X-0.349 Y2.73 Z-6.889 I0.444 J0.009
N13445 X-0.028 Y2.594 Z-6.8 I0.545 J0.846
N13450 X0.943 Y2.902 I0.224 J0.981
N13455 X1.201 Y3.622 Z-7. I-0.747 J0.674
N13460 G01 X1.19 Y3.762
N13465 X1.17 Y3.91
N13470 X1.09 Y4.037
N13475 X0.981 Y4.141
N13480 X0.855 Y4.221
N13485 X0.716 Y4.277
N13490 X0.569 Y4.31
N13495 X0.286 Y4.288
N13500 X0.02 Y4.191
N13505 X-0.212 Y4.027
N13510 X-0.392 Y3.808
N13515 X-0.507 Y3.549
N13520 X-0.55 Y3.269
N13525 G03 X-0.368 Y2.92 Z-6.896 I0.44 J0.008
N13530 X-0.028 Y2.762 Z-6.8 I0.576 J0.797
N13535 X0.925 Y3.045 I0.236 J0.954
N13540 X1.19 Y3.762 Z-7. I-0.717 J0.672
N13545 G01 X1.175 Y3.945
N13550 X1.155 Y4.094
N13555 X1.074 Y4.22
N13560 X0.964 Y4.322
N13565 X0.837 Y4.401
N13570 X0.696 Y4.452
N13575 X0.548 Y4.481
N13580 X0.281 Y4.458
N13585 X0.028 Y4.367
N13590 X-0.194 Y4.215
N13595 X-0.369 Y4.011
N13600 X-0.488 Y3.77
N13605 X-0.54 Y3.507
N13610 G03 X-0.377 Y3.152 Z-6.897 I0.434 J-0.015
N13615 X-0.041 Y2.98 Z-6.8 I0.595 J0.749
N13620 X0.903 Y3.232 I0.259 J0.921
N13625 X1.175 Y3.945 Z-7. I-0.684 J0.669
N13630 G01 X1.16 Y4.129
N13635 X1.138 Y4.277
N13640 X1.056 Y4.402
N13645 X0.944 Y4.502
N13650 X0.815 Y4.578
N13655 X0.673 Y4.627
N13660 X0.525 Y4.653
N13665 X0.375 Y4.657
N13670 X0.146 Y4.601
N13675 X-0.065 Y4.495
N13680 X-0.246 Y4.344
N13685 X-0.388 Y4.155
N13690 X-0.483 Y3.939
N13695 X-0.526 Y3.707
N13700 G03 X-0.371 Y3.363 Z-6.9 I0.426 J-0.015
N13705 X-0.024 Y3.182 Z-6.8 I0.596 J0.723
N13710 X0.882 Y3.419 I0.248 J0.903
N13715 X1.16 Y4.129 Z-7. I-0.658 J0.667
N13720 G01 X1.143 Y4.312
N13725 X1.132 Y4.358
N13730 X1.117 Y4.404
N13735 X1.067 Y4.49
N13740 X1.008 Y4.566
N13745 X0.939 Y4.634
N13750 G03 X0.527 Y3.95 I-0.206 J-0.342
N13755 X0.911 Y3.934 I0.206 J0.342
N13760 X1.117 Y4.404 I-0.178 J0.358
N13765 G01 X1.097 Y4.45
N13770 X1.071 Y4.496
N13775 X1.043 Y4.534
N13780 X1.009 Y4.573
N13785 X0.939 Y4.634
N13790 X0.901 Y4.659
N13795 X0.87 Y4.679
N13800 X0.826 Y4.7
N13805 X0.78 Y4.717
N13810 X0.734 Y4.729
N13815 X0.642 Y4.741
N13820 X0.428 Y4.764
N13825 X0.278 Y4.773
N13830 X0.129 Y4.758
N13835 X-0.067 Y4.674
N13840 X-0.238 Y4.546
N13845 X-0.373 Y4.381
N13850 X-0.464 Y4.188
N13855 X-0.507 Y3.979
N13860 G03 X-0.19 Y3.293 Z-6.8 I0.818 J-0.038
N13865 X0.428 Y3.13 I0.501 J0.648
N13870 X1.044 Y4.326 I-0.118 J0.817
N13875 X0.428 Y4.764 Z-7. I-0.734 J-0.378
N13880 G01 X0.275 Y4.781
N13885 X0.183 Y4.785
N13890 X0.092 Y4.778
N13895 X-0.009 Y4.765
N13900 X-0.055 Y4.759
N13905 X-0.092 Y4.754
N13910 X-0.129 Y4.739
N13915 X-0.214 Y4.697
N13920 X-0.292 Y4.643
N13925 X-0.362 Y4.579
N13930 G03 X0.279 Y4.123 I0.321 J-0.228
N13935 X0.351 Y4.378 I-0.321 J0.228
N13940 X-0.092 Y4.754 I-0.404 J-0.028
N13945 G01 X-0.173 Y4.725
N13950 X-0.213 Y4.705
N13955 X-0.254 Y4.679
N13960 X-0.275 Y4.663
N13965 X-0.319 Y4.625
N13970 X-0.362 Y4.579
N13975 X-0.394 Y4.538
N13980 X-0.42 Y4.496
N13985 X-0.442 Y4.45
N13990 X-0.459 Y4.404
N13995 X-0.471 Y4.358
N14000 X-0.478 Y4.312
N14005 X-0.495 Y4.129
N14010 X-0.51 Y3.945
N14015 X-0.548 Y3.395
N14020 X-0.556 Y2.903
N14025 G03 X-0.046 Y2.413 I0.5 J0.01
N14030 G01 X0.041 Y2.415 Z-6.992
N14035 X0.125 Y2.416 Z-6.97
N14040 X0.204 Y2.418 Z-6.933
N14045 X0.275 Y2.419 Z-6.883
N14050 X0.337 Y2.421 Z-6.821
N14055 X0.387 Y2.422 Z-6.75
N14060 X0.424 Z-6.671
N14065 X0.446 Y2.423 Z-6.587
N14070 X0.454 Z-6.5
N14075 G00 Z5.
N14080 X11.182 Y8.015
N14085 Z-6.
N14090 G01 Z-6.5 F258.
N14095 X11.179 Y8.008 Z-6.587
N14100 X11.17 Y7.988 Z-6.671
N14105 X11.156 Y7.954 Z-6.75
N14110 X11.136 Y7.908 Z-6.821
N14115 X11.112 Y7.851 Z-6.883
N14120 X11.083 Y7.786 Z-6.933
N14125 X11.052 Y7.713 Z-6.97
N14130 X11.019 Y7.636 Z-6.992
N14135 X10.984 Y7.556 Z-7.
N14140 G03 X10.862 Y6.78 I1.454 J-0.626
N14145 G01 X11.137 Y4.679
N14150 X11.157 Y4.496
N14155 X11.179 Y4.29
N14160 X11.294 Y3.49
N14165 X11.431 Y2.694
N14170 X11.547 Y1.894
N14175 X11.627 Y1.089
N14180 X11.661 Y0.282
N14185 X11.645 Y-0.526
N14190 X11.576 Y-1.331
N14195 X11.453 Y-2.13
N14200 X11.296 Y-2.834
N14205 X11.267 Y-2.989
N14210 X11.25 Y-3.146
N14215 X11.244 Y-3.303
N14220 G03 X11.797 Y-3.393 Z-6.8 I0.286 J0.01
N14225 G01 X11.811 Y-3.342
N14230 X11.815 Y-3.29
N14235 X11.728 Y4.504
N14240 X11.722 Y4.561
N14245 X11.704 Y4.615
N14250 G03 X11.157 Y4.496 Z-7. I-0.262 J-0.114
N14255 G01 X11.185 Y3.945
N14260 X11.233 Y2.11
N14265 X11.243 Y1.56
N14270 X11.244 Y1.009
N14275 Y-5.269
N14280 G03 X11.761 Y-5.751 I0.5 J0.017
N14285 G01 X11.848 Y-5.748 Z-6.992
N14290 X11.932 Y-5.745 Z-6.97
N14295 X12.011 Y-5.742 Z-6.933
N14300 X12.082 Y-5.74 Z-6.883
N14305 X12.144 Y-5.737 Z-6.821
N14310 X12.194 Y-5.736 Z-6.75
N14315 X12.231 Y-5.734 Z-6.671
N14320 X12.253 Z-6.587
N14325 X12.261 Y-5.733 Z-6.5
N14330 G00 Z15.

N14335 M05
N14345 G28 G91 Z0.
N14350 G90
N14355 G49
N14360 G28 G91 X0. Y0.
N14365 G90
N14370 M30
%
